;FLAVOR:Marlin
;TIME:6668
;Filament used: 4.41387m
;Layer height: 0.2
;MINX:59
;MINY:84.5
;MINZ:0.2
;MAXX:161
;MAXY:135.5
;MAXZ:20
;TARGET_MACHINE.NAME:Creality Ender-3 S1
;Generated with Cura_SteamEngine 5.6.0
M82 ;absolute extrusion mode
; Ender 3 S1 Start G-code
; M413 S0 ; Disable power loss recovery
G92 E0 ; Reset Extruder

; Prep surfaces before auto home for better accuracy
M140 S60
M104 S200

G28 ; Home all axes
G1 Z10.0 F3000 ; Move Z Axis up little to prevent scratching of Heat Bed
G1 X0 Y0

M190 S60
M109 S200

G1 X0.1 Y20 Z0.3 F5000.0 ; Move to start position
G1 X0.1 Y200.0 Z0.3 F1500.0 E15 ; Draw the first line
G1 X0.4 Y200.0 Z0.3 F5000.0 ; Move to side a little
G1 X0.4 Y20 Z0.3 F1500.0 E30 ; Draw the second line
G92 E0 ; Reset Extruder
G1 Z2.0 F3000 ; Move Z Axis up little to prevent scratching of Heat Bed
G1 X5 Y20 Z0.3 F5000.0 ; Move over to prevent blob squish

G92 E0
G92 E0
G1 F2400 E-0.8
;LAYER_COUNT:100
;LAYER:0
M107
M204 S2000
G0 F7500 X63.998 Y88.297 Z0.2
M204 S500
;TYPE:SKIRT
G1 F2400 E0
G1 F1500 X64.837 Y87.801 E0.03242
G1 X65.651 Y87.41 E0.06245
G1 X66.628 Y87.042 E0.09718
G1 X67.532 Y86.792 E0.12837
G1 X68.533 Y86.609 E0.16222
G1 X69.69 Y86.513 E0.20083
G1 X70.994 Y86.475 E0.24422
G1 X71.121 Y86.464 E0.24846
G1 X72.23 Y86.434 E0.28536
G1 X74.726 Y86.295 E0.36851
G1 X77.23 Y86.085 E0.45208
G1 X81.711 Y85.6 E0.60199
G1 X84.667 Y85.318 E0.70075
G1 X87.176 Y85.112 E0.78448
G1 X89.599 Y84.941 E0.86527
G1 X91.846 Y84.808 E0.94014
G1 X95.489 Y84.643 E1.06143
G1 X98.152 Y84.563 E1.15004
G1 X100.897 Y84.515 E1.24136
G1 X103.452 Y84.5 E1.32634
G1 X116.893 Y84.5 E1.77339
G1 X119.807 Y84.523 E1.87031
G1 X122.56 Y84.58 E1.96189
G1 X125.133 Y84.665 E2.04752
G1 X128.016 Y84.801 E2.14351
G1 X130.213 Y84.928 E2.21671
G1 X133.797 Y85.189 E2.33623
G1 X135.95 Y85.374 E2.4081
G1 X139.077 Y85.683 E2.51261
G1 X140.965 Y85.893 E2.5758
G1 X143.636 Y86.169 E2.66511
G1 X146.108 Y86.355 E2.74756
G1 X148.683 Y86.475 E2.8333
G1 X150.291 Y86.515 E2.88679
G1 X151.262 Y86.585 E2.91917
G1 X152.224 Y86.74 E2.95158
G1 X153.168 Y86.979 E2.98397
G1 X154.055 Y87.288 E3.01521
G1 X154.974 Y87.705 E3.04878
G1 X155.822 Y88.184 E3.08117
G1 X156.624 Y88.736 E3.11355
G1 X157.374 Y89.357 E3.14594
G1 X158.067 Y90.042 E3.17835
G1 X158.673 Y90.757 E3.20952
G1 X159.257 Y91.58 E3.24309
G1 X159.712 Y92.36 E3.27312
G1 X160.156 Y93.306 E3.30788
G1 X160.467 Y94.154 E3.33792
G1 X160.737 Y95.164 E3.37269
G1 X160.903 Y96.128 E3.40523
G1 X160.987 Y97.206 E3.44119
G1 X161 Y97.83 E3.46195
G1 X160.999 Y121.916 E4.26305
G1 X160.987 Y122.677 E4.28837
G1 X160.929 Y123.65 E4.32079
G1 X160.783 Y124.613 E4.35318
G1 X160.552 Y125.56 E4.3856
G1 X160.239 Y126.482 E4.41799
G1 X159.847 Y127.373 E4.45036
G1 X159.395 Y128.195 E4.48156
G1 X158.833 Y129.033 E4.51512
G1 X158.243 Y129.763 E4.54634
G1 X157.54 Y130.489 E4.57995
G1 X156.804 Y131.125 E4.61231
G1 X156.014 Y131.695 E4.64471
G1 X155.238 Y132.158 E4.67476
G1 X154.298 Y132.611 E4.70947
G1 X153.385 Y132.953 E4.74189
G1 X152.447 Y133.212 E4.77426
G1 X151.481 Y133.389 E4.80692
G1 X150.31 Y133.487 E4.84601
G1 X149.006 Y133.525 E4.8894
G1 X148.879 Y133.536 E4.89364
G1 X147.77 Y133.566 E4.93054
G1 X145.275 Y133.703 E5.01365
G1 X142.768 Y133.915 E5.09733
G1 X138.289 Y134.4 E5.24717
G1 X135.333 Y134.682 E5.34593
G1 X132.824 Y134.888 E5.42966
G1 X130.401 Y135.059 E5.51045
G1 X128.154 Y135.192 E5.58532
G1 X124.511 Y135.357 E5.70661
G1 X121.848 Y135.437 E5.79522
G1 X119.103 Y135.485 E5.88653
G1 X116.483 Y135.5 E5.97368
G1 X102.87 Y135.499 E6.42645
G1 X100.193 Y135.477 E6.51549
G1 X97.44 Y135.42 E6.60707
G1 X94.867 Y135.335 E6.6927
G1 X91.984 Y135.199 E6.78869
G1 X89.787 Y135.072 E6.86189
G1 X86.203 Y134.811 E6.98141
G1 X84.05 Y134.626 E7.05328
G1 X80.923 Y134.317 E7.15779
G1 X79.035 Y134.107 E7.22097
G1 X76.364 Y133.831 E7.31029
G1 X73.892 Y133.645 E7.39274
G1 X71.317 Y133.525 E7.47847
G1 X69.709 Y133.485 E7.53197
G1 X68.738 Y133.415 E7.56435
G1 X67.776 Y133.26 E7.59676
G1 X66.832 Y133.021 E7.62915
G1 X65.945 Y132.712 E7.66039
G1 X65.026 Y132.295 E7.69396
G1 X64.178 Y131.816 E7.72635
G1 X63.376 Y131.264 E7.75873
G1 X62.626 Y130.643 E7.79112
G1 X61.933 Y129.958 E7.82353
G1 X61.327 Y129.243 E7.8547
G1 X60.743 Y128.42 E7.88826
G1 X60.288 Y127.64 E7.9183
G1 X59.844 Y126.694 E7.95306
G1 X59.533 Y125.846 E7.9831
G1 X59.263 Y124.835 E8.0179
G1 X59.097 Y123.871 E8.05044
G1 X59.013 Y122.783 E8.08673
G1 X59 Y122.158 E8.10752
G1 X59.001 Y98.009 E8.91072
G1 X59.013 Y97.308 E8.93404
G1 X59.073 Y96.335 E8.96647
G1 X59.22 Y95.374 E8.9988
G1 X59.451 Y94.426 E9.03125
G1 X59.753 Y93.537 E9.06248
G1 X60.16 Y92.615 E9.096
G1 X60.631 Y91.763 E9.12838
G1 X61.176 Y90.954 E9.16082
G1 X61.767 Y90.226 E9.19201
G1 X62.469 Y89.501 E9.22558
G1 X63.179 Y88.887 E9.2568
G1 X63.998 Y88.297 E9.29037
M204 S2000
G0 F7500 X64.202 Y88.641
M204 S500
G1 F1500 X65.01 Y88.162 E9.32161
G1 X65.824 Y87.771 E9.35165
G1 X66.735 Y87.428 E9.38402
G1 X67.639 Y87.178 E9.41522
G1 X68.566 Y87.008 E9.44657
G1 X69.702 Y86.913 E9.48448
G1 X71.006 Y86.875 E9.52787
G1 X71.132 Y86.864 E9.53208
G1 X72.241 Y86.834 E9.56898
G1 X74.759 Y86.694 E9.65285
G1 X77.266 Y86.484 E9.73653
G1 X81.749 Y85.998 E9.88651
G1 X84.7 Y85.717 E9.9851
G1 X87.204 Y85.511 E10.06867
G1 X89.623 Y85.34 E10.14933
G1 X91.864 Y85.208 E10.22399
G1 X95.501 Y85.043 E10.34508
G1 X98.159 Y84.963 E10.43353
G1 X100.899 Y84.915 E10.52467
G1 X103.454 Y84.9 E10.60966
G1 X116.89 Y84.9 E11.05654
G1 X119.799 Y84.923 E11.15329
G1 X122.547 Y84.98 E11.24471
G1 X125.114 Y85.065 E11.33014
G1 X127.993 Y85.2 E11.426
G1 X130.184 Y85.327 E11.499
G1 X133.763 Y85.588 E11.61835
G1 X135.911 Y85.772 E11.69005
G1 X139.033 Y86.081 E11.7944
G1 X140.921 Y86.291 E11.85758
G1 X143.601 Y86.568 E11.94719
G1 X146.089 Y86.755 E12.03018
G1 X148.664 Y86.875 E12.11592
G1 X150.263 Y86.914 E12.16912
G1 X151.199 Y86.98 E12.20032
G1 X152.126 Y87.128 E12.23155
G1 X153.036 Y87.357 E12.26276
G1 X153.923 Y87.666 E12.294
G1 X154.778 Y88.053 E12.32521
G1 X155.596 Y88.514 E12.35644
G1 X156.369 Y89.044 E12.38762
G1 X157.093 Y89.642 E12.41885
G1 X157.762 Y90.301 E12.45008
G1 X158.368 Y91.016 E12.48125
G1 X158.911 Y91.782 E12.51248
G1 X159.366 Y92.562 E12.54252
G1 X159.78 Y93.444 E12.57492
G1 X160.091 Y94.292 E12.60497
G1 X160.343 Y95.233 E12.63737
G1 X160.504 Y96.159 E12.66863
G1 X160.587 Y97.214 E12.70383
G1 X160.6 Y97.83 E12.72432
G1 X160.599 Y121.91 E13.52522
G1 X160.588 Y122.654 E13.54997
G1 X160.533 Y123.591 E13.58119
G1 X160.394 Y124.519 E13.6124
G1 X160.173 Y125.432 E13.64364
G1 X159.873 Y126.321 E13.67485
G1 X159.496 Y127.18 E13.70605
G1 X159.044 Y128.002 E13.73725
G1 X158.521 Y128.782 E13.76848
G1 X157.955 Y129.485 E13.7985
G1 X157.278 Y130.187 E13.83094
G1 X156.57 Y130.801 E13.86211
G1 X155.809 Y131.351 E13.89334
G1 X155.033 Y131.814 E13.92339
G1 X154.157 Y132.237 E13.95575
G1 X153.278 Y132.568 E13.98699
G1 X152.374 Y132.819 E14.01819
G1 X151.447 Y132.99 E14.04955
G1 X150.298 Y133.087 E14.0879
G1 X148.994 Y133.125 E14.13129
G1 X148.868 Y133.136 E14.13549
G1 X147.759 Y133.166 E14.17239
G1 X145.241 Y133.305 E14.25627
G1 X142.734 Y133.516 E14.33995
G1 X138.251 Y134.002 E14.48993
G1 X135.3 Y134.283 E14.58852
G1 X132.796 Y134.489 E14.67209
G1 X130.377 Y134.66 E14.75274
G1 X128.136 Y134.792 E14.82741
G1 X124.499 Y134.957 E14.9485
G1 X121.841 Y135.037 E15.03695
G1 X119.101 Y135.085 E15.12809
G1 X116.483 Y135.1 E15.21517
G1 X102.873 Y135.099 E15.66784
G1 X100.201 Y135.077 E15.75671
G1 X97.453 Y135.02 E15.84813
G1 X94.886 Y134.935 E15.93356
G1 X92.007 Y134.8 E16.02942
G1 X89.816 Y134.673 E16.10241
G1 X86.237 Y134.412 E16.22177
G1 X84.089 Y134.228 E16.29347
G1 X80.967 Y133.919 E16.39782
G1 X79.079 Y133.709 E16.461
G1 X76.399 Y133.432 E16.55061
G1 X73.911 Y133.245 E16.6336
G1 X71.336 Y133.125 E16.71933
G1 X69.737 Y133.086 E16.77253
G1 X68.801 Y133.02 E16.80374
G1 X67.874 Y132.872 E16.83496
G1 X66.964 Y132.643 E16.86617
G1 X66.077 Y132.334 E16.89742
G1 X65.222 Y131.947 E16.92863
G1 X64.404 Y131.486 E16.95986
G1 X63.631 Y130.956 E16.99103
G1 X62.907 Y130.358 E17.02227
G1 X62.238 Y129.699 E17.0535
G1 X61.632 Y128.984 E17.08467
G1 X61.089 Y128.218 E17.1159
G1 X60.634 Y127.438 E17.14594
G1 X60.22 Y126.556 E17.17834
G1 X59.909 Y125.708 E17.20838
G1 X59.657 Y124.767 E17.24078
G1 X59.496 Y123.84 E17.27208
G1 X59.413 Y122.775 E17.30761
G1 X59.4 Y122.158 E17.32813
G1 X59.401 Y98.015 E18.13113
G1 X59.412 Y97.332 E18.15385
G1 X59.469 Y96.395 E18.18508
G1 X59.609 Y95.468 E18.21626
G1 X59.83 Y94.555 E18.2475
G1 X60.132 Y93.666 E18.27873
G1 X60.51 Y92.808 E18.30991
G1 X60.963 Y91.986 E18.34113
G1 X61.487 Y91.206 E18.37238
G1 X62.078 Y90.478 E18.40357
G1 X62.731 Y89.804 E18.43478
G1 X63.441 Y89.19 E18.466
G1 X64.202 Y88.641 E18.49721
M204 S2000
G0 F7500 X64.407 Y88.985
M204 S500
G1 F1500 X65.183 Y88.523 E18.52725
G1 X65.997 Y88.132 E18.55729
G1 X66.842 Y87.813 E18.58733
G1 X67.712 Y87.571 E18.61736
G1 X68.6 Y87.407 E18.6474
G1 X69.714 Y87.313 E18.68458
G1 X71.021 Y87.275 E18.72807
G1 X71.143 Y87.264 E18.73214
G1 X72.252 Y87.234 E18.76904
G1 X74.792 Y87.093 E18.85365
G1 X77.302 Y86.883 E18.93743
G1 X81.787 Y86.396 E19.08748
G1 X84.733 Y86.116 E19.1859
G1 X87.232 Y85.91 E19.2693
G1 X89.646 Y85.739 E19.34979
G1 X91.882 Y85.608 E19.42429
G1 X95.513 Y85.443 E19.54518
G1 X98.166 Y85.363 E19.63346
G1 X100.901 Y85.315 E19.72444
G1 X103.456 Y85.3 E19.80942
G1 X116.887 Y85.3 E20.25614
G1 X119.791 Y85.323 E20.35273
G1 X122.534 Y85.38 E20.44398
G1 X125.095 Y85.465 E20.52921
G1 X127.97 Y85.599 E20.62493
G1 X130.155 Y85.726 E20.69773
G1 X133.729 Y85.987 E20.81692
G1 X135.872 Y86.17 E20.88845
G1 X138.989 Y86.479 E20.99263
G1 X140.877 Y86.689 E21.05582
G1 X143.566 Y86.967 E21.14573
G1 X146.07 Y87.155 E21.22925
G1 X148.645 Y87.275 E21.31499
G1 X150.236 Y87.313 E21.36792
G1 X151.137 Y87.375 E21.39796
G1 X152.029 Y87.516 E21.42799
G1 X152.905 Y87.735 E21.45803
G1 X153.759 Y88.031 E21.48809
G1 X154.582 Y88.402 E21.51811
G1 X155.37 Y88.844 E21.54816
G1 X156.115 Y89.353 E21.57817
G1 X156.813 Y89.927 E21.60823
G1 X157.457 Y90.56 E21.63826
G1 X158.042 Y91.248 E21.6683
G1 X158.565 Y91.984 E21.69833
G1 X159.02 Y92.764 E21.72837
G1 X159.404 Y93.582 E21.75842
G1 X159.715 Y94.43 E21.78846
G1 X159.949 Y95.302 E21.81849
G1 X160.105 Y96.191 E21.84851
G1 X160.187 Y97.223 E21.88295
G1 X160.2 Y97.83 E21.90314
G1 X160.199 Y121.904 E22.70384
G1 X160.189 Y122.631 E22.72803
G1 X160.137 Y123.533 E22.75808
G1 X160.005 Y124.426 E22.7881
G1 X159.794 Y125.305 E22.81817
G1 X159.507 Y126.161 E22.84819
G1 X159.145 Y126.988 E22.87822
G1 X158.711 Y127.78 E22.90826
G1 X158.209 Y128.531 E22.9383
G1 X157.643 Y129.234 E22.96832
G1 X157.016 Y129.885 E22.99838
G1 X156.335 Y130.477 E23.0284
G1 X155.604 Y131.007 E23.05843
G1 X154.828 Y131.47 E23.08848
G1 X154.015 Y131.863 E23.11852
G1 X153.17 Y132.183 E23.14857
G1 X152.301 Y132.426 E23.17858
G1 X151.413 Y132.591 E23.20862
G1 X150.286 Y132.687 E23.24624
G1 X148.979 Y132.725 E23.28973
G1 X148.857 Y132.736 E23.2938
G1 X147.748 Y132.766 E23.3307
G1 X145.208 Y132.907 E23.41531
G1 X142.698 Y133.117 E23.49909
G1 X138.213 Y133.604 E23.64914
G1 X135.267 Y133.884 E23.74756
G1 X132.768 Y134.09 E23.83096
G1 X130.354 Y134.261 E23.91145
G1 X128.118 Y134.392 E23.98595
G1 X124.487 Y134.557 E24.10684
G1 X121.834 Y134.637 E24.19512
G1 X119.099 Y134.685 E24.2861
G1 X116.483 Y134.7 E24.37311
G1 X102.876 Y134.699 E24.82568
G1 X100.209 Y134.677 E24.91439
G1 X97.466 Y134.62 E25.00564
G1 X94.905 Y134.535 E25.09087
G1 X92.03 Y134.401 E25.1866
G1 X89.845 Y134.274 E25.25939
G1 X86.271 Y134.013 E25.37858
G1 X84.128 Y133.83 E25.45012
G1 X81.011 Y133.521 E25.5543
G1 X79.123 Y133.311 E25.61748
G1 X76.434 Y133.033 E25.70739
G1 X73.93 Y132.845 E25.79091
G1 X71.355 Y132.725 E25.87665
G1 X69.764 Y132.687 E25.92958
G1 X68.863 Y132.625 E25.95962
G1 X67.971 Y132.484 E25.98965
G1 X67.095 Y132.265 E26.01969
G1 X66.241 Y131.969 E26.04975
G1 X65.418 Y131.598 E26.07977
G1 X64.63 Y131.156 E26.10982
G1 X63.885 Y130.647 E26.13983
G1 X63.187 Y130.073 E26.16989
G1 X62.543 Y129.44 E26.19993
G1 X61.958 Y128.752 E26.22996
G1 X61.435 Y128.016 E26.25999
G1 X60.98 Y127.236 E26.29003
G1 X60.596 Y126.418 E26.32008
G1 X60.285 Y125.57 E26.35012
G1 X60.051 Y124.698 E26.38015
G1 X59.895 Y123.809 E26.41017
G1 X59.813 Y122.766 E26.44497
G1 X59.8 Y122.158 E26.4652
G1 X59.801 Y98.021 E27.268
G1 X59.811 Y97.356 E27.29012
G1 X59.865 Y96.454 E27.32017
G1 X59.998 Y95.561 E27.3502
G1 X60.209 Y94.683 E27.38023
G1 X60.498 Y93.827 E27.41028
G1 X60.861 Y93 E27.44032
G1 X61.295 Y92.209 E27.47033
G1 X61.798 Y91.458 E27.5004
G1 X62.366 Y90.756 E27.53043
G1 X62.993 Y90.106 E27.56047
G1 X63.675 Y89.514 E27.5905
G1 X64.407 Y88.985 E27.62054
M204 S2000
G1 F2400 E26.82054
G0 F7500 X99.807 Y110
M204 S500
G1 F2400 E27.62054
G1 F1500 X106.632 Y109.09 E27.84955
G1 X107.172 Y108.977 E27.8679
G1 X107.635 Y108.812 E27.88425
G1 X108.238 Y108.552 E27.90609
G1 X108.937 Y108.158 E27.93278
G1 X109.253 Y107.933 E27.94568
G1 X109.854 Y107.401 E27.97238
G1 X110.167 Y107.058 E27.98782
G1 X110.281 Y107.174 E27.99323
G1 X110.583 Y107.451 E28.00686
G1 X110.883 Y107.698 E28.01979
G1 X111.181 Y107.92 E28.03214
G1 X111.5 Y108.134 E28.04492
G1 X111.826 Y108.329 E28.05756
G1 X112.159 Y108.507 E28.07011
G1 X112.513 Y108.674 E28.08313
G1 X112.868 Y108.819 E28.09589
G1 X113.218 Y108.942 E28.10823
G1 X113.583 Y109.051 E28.1209
G1 X113.975 Y109.146 E28.13431
G1 X114.335 Y109.213 E28.14649
G1 X114.528 Y109.244 E28.15299
G1 X120.196 Y110 E28.34318
G1 X113.368 Y110.91 E28.57229
G1 X112.828 Y111.023 E28.59064
G1 X112.365 Y111.188 E28.60699
G1 X111.762 Y111.448 E28.62883
G1 X111.063 Y111.842 E28.65551
G1 X110.747 Y112.067 E28.66842
G1 X110.146 Y112.599 E28.69511
G1 X109.999 Y112.76 E28.70236
G1 X109.829 Y112.575 E28.71072
G1 X109.429 Y112.196 E28.72905
G1 X109.022 Y111.907 E28.74565
G1 X108.477 Y111.571 E28.76694
G1 X107.988 Y111.317 E28.78527
G1 X107.51 Y111.147 E28.80215
G1 X106.954 Y110.991 E28.82135
G1 X106.429 Y110.883 E28.83918
G1 X99.807 Y110 E29.06138
M204 S2000
G1 F2400 E28.26138
G0 F7500 X96.777 Y110
M204 S500
G1 F2400 E29.06138
G1 F1500 X106.579 Y108.693 E29.39028
G1 X107.089 Y108.585 E29.40762
G1 X107.476 Y108.445 E29.42131
G1 X108.079 Y108.185 E29.44315
G1 X108.705 Y107.833 E29.46703
G1 X109.021 Y107.608 E29.47994
G1 X109.559 Y107.131 E29.50385
G1 X109.972 Y106.679 E29.52421
G1 X110.15 Y106.452 E29.53381
G1 X110.299 Y106.62 E29.54128
G1 X110.567 Y106.894 E29.55403
G1 X110.837 Y107.142 E29.56622
G1 X111.137 Y107.389 E29.57914
G1 X111.404 Y107.588 E29.59022
G1 X111.723 Y107.802 E29.603
G1 X112.014 Y107.977 E29.61429
G1 X112.347 Y108.155 E29.62685
G1 X112.664 Y108.304 E29.6385
G1 X113.019 Y108.449 E29.65125
G1 X113.332 Y108.559 E29.66229
G1 X113.697 Y108.668 E29.67496
G1 X114.048 Y108.753 E29.68697
G1 X114.408 Y108.82 E29.69915
G1 X114.581 Y108.847 E29.70497
G1 X123.227 Y110 E29.99508
G1 X113.421 Y111.307 E30.32412
G1 X112.911 Y111.415 E30.34146
G1 X112.524 Y111.555 E30.35514
G1 X111.921 Y111.815 E30.37699
G1 X111.295 Y112.167 E30.40087
G1 X110.979 Y112.392 E30.41377
G1 X110.441 Y112.869 E30.43769
G1 X110.028 Y113.321 E30.45805
G1 X109.997 Y113.361 E30.45974
G1 X109.952 Y113.3 E30.46226
G1 X109.535 Y112.845 E30.48278
G1 X109.154 Y112.489 E30.50013
G1 X108.812 Y112.248 E30.51404
G1 X108.267 Y111.912 E30.53534
G1 X107.804 Y111.673 E30.55267
G1 X107.401 Y111.532 E30.56687
G1 X106.845 Y111.376 E30.58608
G1 X106.376 Y111.28 E30.602
G1 X96.777 Y110 E30.92409
M204 S2000
G1 F2400 E30.12409
G0 F7500 X93.754 Y110
M204 S500
G1 F2400 E30.92409
G1 F1500 X106.527 Y108.297 E31.35268
G1 X107.005 Y108.193 E31.36895
G1 X107.318 Y108.078 E31.38004
