;FLAVOR:Marlin
;TIME:6942
;Filament used: 4.52523m
;Layer height: 0.2
;MINX:62.2
;MINY:87.7
;MINZ:0.2
;MAXX:157.8
;MAXY:132.3
;MAXZ:20
;TARGET_MACHINE.NAME:Creality Ender-3 S1
;Generated with Cura_SteamEngine 5.6.0
M82 ;absolute extrusion mode
; Ender 3 S1 Start G-code
; M413 S0 ; Disable power loss recovery
G92 E0 ; Reset Extruder

; Prep surfaces before auto home for better accuracy
M140 S60.0
M104 S210.0

G28 ; Home all axes
G1 Z10.0 F3000 ; Move Z Axis up little to prevent scratching of Heat Bed
G1 X0 Y0

M190 S60.0
M109 S210.0

G1 X0.1 Y20 Z0.3 F5000.0 ; Move to start position
G1 X0.1 Y200.0 Z0.3 F1500.0 E15 ; Draw the first line
G1 X0.4 Y200.0 Z0.3 F5000.0 ; Move to side a little
G1 X0.4 Y20 Z0.3 F1500.0 E30 ; Draw the second line
G92 E0 ; Reset Extruder
G1 Z2.0 F3000 ; Move Z Axis up little to prevent scratching of Heat Bed
G1 X5 Y20 Z0.3 F5000.0 ; Move over to prevent blob squish

G92 E0
G92 E0
G1 F2400 E-3
;LAYER_COUNT:100
;LAYER:0
M107
M204 S2000
G0 F7500 X65.294 Y91.25 Z0.2
M204 S500
;TYPE:SKIRT
G1 F2400 E0
G1 F1500 X67.004 Y90.241 E0.06604
G1 X67.533 Y90.018 E0.08513
G1 X69.349 Y89.747 E0.1462
G1 X74.413 Y89.7 E0.31464
G1 X78.159 Y89.209 E0.4403
G1 X82.317 Y88.76 E0.5794
G1 X86.511 Y88.374 E0.71948
G1 X90.686 Y88.087 E0.85867
G1 X94.894 Y87.864 E0.99882
G1 X99.092 Y87.741 E1.13851
G1 X103.213 Y87.7 E1.27558
G1 X116.946 Y87.701 E1.73234
G1 X121.078 Y87.741 E1.86978
G1 X125.262 Y87.877 E2.00901
G1 X129.47 Y88.088 E2.14915
G1 X133.639 Y88.393 E2.28818
G1 X137.845 Y88.762 E2.42861
G1 X142.005 Y89.229 E2.56784
G1 X145.563 Y89.7 E2.68721
G1 X150.853 Y89.7 E2.86316
G1 X152.749 Y90.166 E2.9281
G1 X154.777 Y91.219 E3.0041
G1 X156.236 Y92.78 E3.07516
G1 X157.443 Y94.803 E3.15352
G1 X157.725 Y96.521 E3.21142
G1 X157.8 Y123.353 E4.10386
G1 X157.334 Y125.249 E4.1688
G1 X156.281 Y127.277 E4.2448
G1 X154.706 Y128.75 E4.31652
G1 X152.996 Y129.759 E4.38256
G1 X152.467 Y129.982 E4.40166
G1 X150.651 Y130.253 E4.46273
G1 X145.587 Y130.3 E4.63116
G1 X141.841 Y130.791 E4.75682
G1 X137.683 Y131.24 E4.89592
G1 X133.489 Y131.626 E5.036
G1 X129.314 Y131.913 E5.17519
G1 X125.106 Y132.136 E5.31535
G1 X120.908 Y132.259 E5.45503
G1 X116.787 Y132.3 E5.5921
G1 X103.054 Y132.299 E6.04887
G1 X98.922 Y132.259 E6.1863
G1 X94.739 Y132.123 E6.3255
G1 X90.53 Y131.912 E6.46567
G1 X86.361 Y131.607 E6.6047
G1 X82.155 Y131.238 E6.74513
G1 X77.995 Y130.771 E6.88436
G1 X74.437 Y130.3 E7.00374
G1 X69.147 Y130.3 E7.17968
G1 X67.251 Y129.834 E7.24462
G1 X65.223 Y128.781 E7.32062
G1 X63.764 Y127.22 E7.39169
G1 X62.557 Y125.197 E7.47004
G1 X62.275 Y123.479 E7.52795
G1 X62.2 Y96.647 E8.42038
G1 X62.666 Y94.751 E8.48532
G1 X63.719 Y92.723 E8.56132
G1 X65.294 Y91.25 E8.63305
M204 S2000
G0 F7500 X65.534 Y91.573
M204 S500
G1 F1500 X67.159 Y90.61 E8.69587
G1 X67.641 Y90.407 E8.71327
G1 X69.408 Y90.143 E8.77269
G1 X74.444 Y90.1 E8.9402
G1 X78.202 Y89.607 E9.06626
G1 X82.354 Y89.158 E9.20516
G1 X86.538 Y88.773 E9.34491
G1 X90.707 Y88.486 E9.4839
G1 X94.906 Y88.264 E9.62375
G1 X99.096 Y88.141 E9.76317
G1 X103.213 Y88.1 E9.90011
G1 X116.942 Y88.101 E10.35674
G1 X121.065 Y88.141 E10.49388
G1 X125.242 Y88.277 E10.63288
G1 X129.441 Y88.487 E10.77271
G1 X133.604 Y88.791 E10.91154
G1 X137.8 Y89.16 E11.05164
G1 X141.953 Y89.626 E11.19064
G1 X145.534 Y90.1 E11.31078
G1 X150.807 Y90.1 E11.48616
G1 X152.606 Y90.542 E11.54778
G1 X154.532 Y91.542 E11.61996
G1 X155.912 Y93.019 E11.68719
G1 X157.06 Y94.943 E11.76171
G1 X157.33 Y96.586 E11.81708
G1 X157.4 Y123.307 E12.70583
G1 X156.958 Y125.106 E12.76745
G1 X155.958 Y127.032 E12.83962
G1 X154.466 Y128.427 E12.90756
G1 X152.841 Y129.39 E12.97039
G1 X152.359 Y129.593 E12.98778
G1 X150.592 Y129.857 E13.0472
G1 X145.556 Y129.9 E13.21471
G1 X141.798 Y130.393 E13.34077
G1 X137.646 Y130.842 E13.47967
G1 X133.462 Y131.227 E13.61942
G1 X129.293 Y131.514 E13.75841
G1 X125.094 Y131.736 E13.89826
G1 X120.904 Y131.859 E14.03768
G1 X116.787 Y131.9 E14.17462
G1 X103.058 Y131.899 E14.63125
G1 X98.935 Y131.859 E14.76839
G1 X94.759 Y131.723 E14.90736
G1 X90.559 Y131.513 E15.04723
G1 X86.396 Y131.209 E15.18606
G1 X82.2 Y130.84 E15.32615
G1 X78.047 Y130.374 E15.46515
G1 X74.466 Y129.9 E15.58529
G1 X69.193 Y129.9 E15.76067
G1 X67.394 Y129.458 E15.82229
G1 X65.468 Y128.458 E15.89447
G1 X64.088 Y126.981 E15.9617
G1 X62.94 Y125.057 E16.03622
G1 X62.67 Y123.414 E16.0916
G1 X62.6 Y96.693 E16.98034
G1 X63.042 Y94.894 E17.04196
G1 X64.042 Y92.968 E17.11414
G1 X65.534 Y91.573 E17.18207
M204 S2000
G0 F7500 X65.773 Y91.897
M204 S500
G1 F1500 X67.314 Y90.979 E17.24173
G1 X67.749 Y90.796 E17.25743
G1 X69.467 Y90.539 E17.3152
G1 X74.475 Y90.5 E17.48178
G1 X78.245 Y90.005 E17.60824
G1 X82.391 Y89.556 E17.74695
G1 X86.566 Y89.172 E17.88639
G1 X90.728 Y88.885 E18.02515
G1 X94.918 Y88.664 E18.1647
G1 X99.1 Y88.541 E18.30386
G1 X103.213 Y88.5 E18.44066
G1 X116.938 Y88.501 E18.89716
G1 X121.052 Y88.541 E19.034
G1 X125.222 Y88.676 E19.17277
G1 X129.412 Y88.886 E19.3123
G1 X133.569 Y89.189 E19.45093
G1 X137.755 Y89.558 E19.5907
G1 X141.901 Y90.023 E19.72946
G1 X145.505 Y90.5 E19.85037
G1 X150.76 Y90.5 E20.02515
G1 X152.464 Y90.919 E20.08352
G1 X154.287 Y91.865 E20.15183
G1 X155.591 Y93.261 E20.21537
G1 X156.677 Y95.081 E20.28586
G1 X156.935 Y96.651 E20.33878
G1 X157 Y123.26 E21.2238
G1 X156.581 Y124.964 E21.28216
G1 X155.635 Y126.787 E21.35047
G1 X154.227 Y128.103 E21.41457
G1 X152.686 Y129.021 E21.47423
G1 X152.251 Y129.204 E21.48993
G1 X150.533 Y129.461 E21.5477
G1 X145.525 Y129.5 E21.71428
G1 X141.755 Y129.995 E21.84074
G1 X137.609 Y130.444 E21.97945
G1 X133.434 Y130.828 E22.11889
G1 X129.272 Y131.115 E22.25765
G1 X125.082 Y131.336 E22.3972
G1 X120.9 Y131.459 E22.53636
G1 X116.787 Y131.5 E22.67316
G1 X103.062 Y131.499 E23.12966
G1 X98.948 Y131.459 E23.2665
G1 X94.779 Y131.324 E23.40523
G1 X90.588 Y131.114 E23.5448
G1 X86.431 Y130.811 E23.68343
G1 X82.245 Y130.442 E23.8232
G1 X78.099 Y129.977 E23.96196
G1 X74.495 Y129.5 E24.08287
G1 X69.24 Y129.5 E24.25765
G1 X67.536 Y129.081 E24.31602
G1 X65.713 Y128.135 E24.38433
G1 X64.409 Y126.739 E24.44787
G1 X63.323 Y124.919 E24.51836
G1 X63.065 Y123.349 E24.57128
G1 X63 Y96.74 E25.4563
G1 X63.419 Y95.036 E25.51466
G1 X64.365 Y93.213 E25.58297
G1 X65.773 Y91.897 E25.64707
M204 S2000
G0 F7500 X66.012 Y92.221
M204 S500
G1 F1500 X67.519 Y91.323 E25.70542
G1 X67.856 Y91.185 E25.71753
G1 X69.526 Y90.935 E25.77369
G1 X74.506 Y90.9 E25.93933
G1 X78.288 Y90.403 E26.06621
G1 X82.428 Y89.954 E26.20471
G1 X86.594 Y89.571 E26.34386
G1 X90.749 Y89.284 E26.48238
G1 X94.93 Y89.064 E26.62163
G1 X99.104 Y88.941 E26.76052
G1 X103.213 Y88.9 E26.8972
G1 X116.934 Y88.901 E27.35356
G1 X121.039 Y88.941 E27.4901
G1 X125.202 Y89.076 E27.62863
G1 X129.383 Y89.285 E27.76787
G1 X133.534 Y89.587 E27.90629
G1 X137.71 Y89.955 E28.04573
G1 X141.849 Y90.42 E28.18426
G1 X145.476 Y90.9 E28.30594
G1 X150.714 Y90.9 E28.48016
G1 X152.321 Y91.295 E28.5352
G1 X154.042 Y92.188 E28.59969
G1 X155.27 Y93.503 E28.65953
G1 X156.294 Y95.219 E28.72599
G1 X156.54 Y96.716 E28.77645
G1 X156.6 Y123.214 E29.65778
G1 X156.205 Y124.821 E29.71282
G1 X155.312 Y126.542 E29.77731
G1 X153.988 Y127.779 E29.83757
G1 X152.481 Y128.677 E29.89592
G1 X152.144 Y128.815 E29.90803
G1 X150.474 Y129.065 E29.9642
G1 X145.494 Y129.1 E30.12984
G1 X141.712 Y129.597 E30.25671
G1 X137.572 Y130.046 E30.39521
G1 X133.406 Y130.429 E30.53436
G1 X129.251 Y130.716 E30.67288
G1 X125.07 Y130.936 E30.81214
G1 X120.896 Y131.059 E30.95102
G1 X116.787 Y131.1 E31.0877
G1 X103.066 Y131.099 E31.54406
G1 X98.961 Y131.059 E31.6806
G1 X94.799 Y130.924 E31.8191
G1 X90.617 Y130.715 E31.95837
G1 X86.466 Y130.413 E32.09679
G1 X82.29 Y130.045 E32.23623
G1 X78.151 Y129.58 E32.37476
G1 X74.524 Y129.1 E32.49644
G1 X69.286 Y129.1 E32.67066
G1 X67.679 Y128.705 E32.7257
G1 X65.958 Y127.812 E32.79019
G1 X64.73 Y126.497 E32.85003
G1 X63.706 Y124.781 E32.91649
G1 X63.46 Y123.284 E32.96695
G1 X63.4 Y96.786 E33.84828
G1 X63.795 Y95.179 E33.90332
G1 X64.688 Y93.458 E33.96781
G1 X66.012 Y92.221 E34.02807
M204 S2000
G0 F7500 X66.251 Y92.545
M204 S500
G1 F1500 X67.724 Y91.667 E34.08511
G1 X67.967 Y91.572 E34.09379
G1 X69.529 Y91.335 E34.14633
G1 X74.537 Y91.3 E34.31291
G1 X78.331 Y90.801 E34.44018
G1 X82.465 Y90.352 E34.57849
G1 X86.622 Y89.97 E34.71733
G1 X90.77 Y89.683 E34.85563
G1 X94.942 Y89.464 E34.99458
G1 X99.108 Y89.341 E35.1332
G1 X103.213 Y89.3 E35.26974
G1 X116.93 Y89.301 E35.72597
G1 X121.026 Y89.341 E35.86221
G1 X125.182 Y89.475 E36.00051
G1 X129.354 Y89.684 E36.13944
G1 X133.499 Y89.985 E36.27767
G1 X137.665 Y90.353 E36.41677
G1 X141.797 Y90.817 E36.55507
G1 X145.447 Y91.3 E36.67752
G1 X150.668 Y91.3 E36.85118
G1 X152.178 Y91.671 E36.90289
G1 X153.797 Y92.511 E36.96356
G1 X154.949 Y93.745 E37.01971
G1 X155.911 Y95.357 E37.08214
G1 X156.145 Y96.781 E37.13014
G1 X156.2 Y123.168 E38.00778
G1 X155.829 Y124.678 E38.05949
G1 X154.989 Y126.297 E38.12016
G1 X153.749 Y127.455 E38.17659
G1 X152.276 Y128.333 E38.23362
G1 X152.033 Y128.428 E38.2423
G1 X150.471 Y128.665 E38.29485
G1 X145.463 Y128.7 E38.46142
G1 X141.669 Y129.199 E38.58869
G1 X137.535 Y129.648 E38.727
G1 X133.378 Y130.03 E38.86585
G1 X129.23 Y130.317 E39.00414
G1 X125.058 Y130.536 E39.14309
G1 X120.892 Y130.659 E39.28171
G1 X116.787 Y130.7 E39.41825
G1 X103.07 Y130.699 E39.87448
G1 X98.974 Y130.659 E40.01072
G1 X94.819 Y130.525 E40.14899
G1 X90.646 Y130.316 E40.28796
G1 X86.501 Y130.015 E40.42618
G1 X82.335 Y129.647 E40.56529
G1 X78.203 Y129.183 E40.70358
G1 X74.553 Y128.7 E40.82604
G1 X69.332 Y128.7 E40.99969
G1 X67.822 Y128.329 E41.05141
G1 X66.203 Y127.489 E41.11207
G1 X65.051 Y126.255 E41.16822
G1 X64.089 Y124.643 E41.23066
G1 X63.855 Y123.219 E41.27865
G1 X63.8 Y96.832 E42.15629
G1 X64.171 Y95.322 E42.20801
G1 X65.011 Y93.703 E42.26867
G1 X66.251 Y92.545 E42.3251
M204 S2000
G0 F7500 X66.49 Y92.869
M204 S500
G1 F1500 X67.929 Y92.011 E42.38082
G1 X68.072 Y91.96 E42.38587
G1 X69.532 Y91.735 E42.43501
G1 X74.568 Y91.7 E42.60251
G1 X78.374 Y91.199 E42.73019
G1 X82.502 Y90.75 E42.8683
G1 X86.65 Y90.369 E43.00684
G1 X90.791 Y90.082 E43.1449
G1 X94.954 Y89.864 E43.28355
G1 X99.112 Y89.741 E43.42191
G1 X103.213 Y89.7 E43.55832
G1 X116.926 Y89.701 E44.01441
G1 X121.013 Y89.741 E44.15035
G1 X125.162 Y89.875 E44.28842
G1 X129.325 Y90.083 E44.42706
G1 X133.464 Y90.383 E44.56508
G1 X137.62 Y90.751 E44.70385
G1 X141.745 Y91.214 E44.84191
G1 X145.418 Y91.7 E44.96514
G1 X150.621 Y91.7 E45.13819
G1 X152.036 Y92.048 E45.18666
G1 X153.552 Y92.834 E45.24345
G1 X154.628 Y93.987 E45.29591
G1 X155.528 Y95.495 E45.35432
G1 X155.75 Y96.846 E45.39985
G1 X155.8 Y123.121 E46.27377
G1 X155.452 Y124.536 E46.32223
G1 X154.666 Y126.052 E46.37903
G1 X153.51 Y127.131 E46.43162
G1 X152.071 Y127.989 E46.48735
G1 X151.928 Y128.04 E46.4924
G1 X150.468 Y128.265 E46.54153
G1 X145.432 Y128.3 E46.70903
G1 X141.626 Y128.801 E46.83671
G1 X137.498 Y129.25 E46.97482
G1 X133.35 Y129.631 E47.11336
G1 X129.209 Y129.918 E47.25142
G1 X125.046 Y130.136 E47.39007
G1 X120.888 Y130.259 E47.52843
G1 X116.787 Y130.3 E47.66484
G1 X103.074 Y130.299 E48.12093
G1 X98.987 Y130.259 E48.25687
G1 X94.839 Y130.125 E48.39491
G1 X90.675 Y129.917 E48.53358
G1 X86.536 Y129.617 E48.6716
G1 X82.38 Y129.249 E48.81037
G1 X78.255 Y128.786 E48.94843
G1 X74.582 Y128.3 E49.07166
G1 X69.379 Y128.3 E49.24471
G1 X67.964 Y127.952 E49.29318
G1 X66.448 Y127.166 E49.34998
G1 X65.372 Y126.013 E49.40243
G1 X64.472 Y124.505 E49.46084
G1 X64.25 Y123.154 E49.50638
G1 X64.2 Y96.879 E50.38029
G1 X64.548 Y95.464 E50.42875
G1 X65.334 Y93.948 E50.48555
G1 X66.49 Y92.869 E50.53814
M204 S2000
G0 F7500 X66.729 Y93.193
M204 S500
G1 F1500 X68.134 Y92.355 E50.59256
G1 X69.535 Y92.135 E50.63972
G1 X74.599 Y92.1 E50.80816
G1 X78.417 Y91.597 E50.93624
G1 X82.539 Y91.148 E51.07415
G1 X86.678 Y90.768 E51.21239
G1 X90.812 Y90.481 E51.35022
G1 X94.966 Y90.264 E51.48857
G1 X99.116 Y90.141 E51.62666
G1 X103.213 Y90.1 E51.76294
G1 X116.922 Y90.101 E52.2189
G1 X121 Y90.141 E52.35454
G1 X125.142 Y90.274 E52.49238
G1 X129.296 Y90.482 E52.63071
G1 X133.429 Y90.781 E52.76854
G1 X137.575 Y91.149 E52.90697
G1 X141.693 Y91.611 E53.0448
G1 X145.389 Y92.1 E53.1688
G1 X150.575 Y92.1 E53.34129
G1 X151.893 Y92.424 E53.38643
G1 X153.307 Y93.157 E53.4394
G1 X154.307 Y94.229 E53.48816
G1 X155.145 Y95.633 E53.54254
G1 X155.355 Y96.911 E53.58562
G1 X155.4 Y123.075 E54.45584
G1 X155.076 Y124.393 E54.50098
G1 X154.343 Y125.807 E54.55396
G1 X153.271 Y126.807 E54.60272
G1 X151.866 Y127.645 E54.65713
G1 X150.465 Y127.865 E54.70429
G1 X145.401 Y127.9 E54.87273
G1 X141.583 Y128.403 E55.00081
G1 X137.461 Y128.852 E55.13872
G1 X133.322 Y129.232 E55.27696
G1 X129.188 Y129.519 E55.41479
G1 X125.034 Y129.736 E55.55314
G1 X120.884 Y129.859 E55.69123
G1 X116.787 Y129.9 E55.82751
G1 X103.078 Y129.899 E56.28347
G1 X99 Y129.859 E56.41911
G1 X94.859 Y129.726 E56.55691
G1 X90.704 Y129.518 E56.69528
G1 X86.571 Y129.219 E56.83311
G1 X82.425 Y128.851 E56.97154
G1 X78.307 Y128.389 E57.10937
G1 X74.611 Y127.9 E57.23337
G1 X69.425 Y127.9 E57.40586
G1 X68.107 Y127.576 E57.451
G1 X66.693 Y126.843 E57.50397
G1 X65.693 Y125.771 E57.55273
G1 X64.855 Y124.367 E57.60711
G1 X64.645 Y123.089 E57.65019
G1 X64.6 Y96.925 E58.52041
G1 X64.924 Y95.607 E58.56555
G1 X65.657 Y94.193 E58.61853
G1 X66.729 Y93.193 E58.66729
M204 S2000
G0 F7500 X66.974 Y93.512
M204 S500
G1 F1500 X68.271 Y92.738 E58.71752
G1 X69.538 Y92.535 E58.7602
G1 X74.63 Y92.5 E58.92956
G1 X78.46 Y91.995 E59.05805
G1 X82.576 Y91.546 E59.19576
G1 X86.706 Y91.167 E59.33371
G1 X90.833 Y90.88 E59.4713
G1 X94.978 Y90.664 E59.60935
G1 X99.12 Y90.541 E59.74718
G1 X103.213 Y90.5 E59.88332
G1 X116.918 Y90.501 E60.33915
G1 X120.987 Y90.541 E60.47449
G1 X125.122 Y90.674 E60.61209
G1 X129.267 Y90.881 E60.75013
G1 X133.394 Y91.179 E60.88775
G1 X137.53 Y91.546 E61.02585
G1 X141.641 Y92.008 E61.16344
G1 X145.36 Y92.5 E61.28822
G1 X150.529 Y92.5 E61.46014
G1 X151.75 Y92.8 E61.50196
G1 X153.06 Y93.479 E61.55103
G1 X153.988 Y94.474 E61.59629
G1 X154.762 Y95.771 E61.64652
G1 X154.96 Y96.976 E61.68714
G1 X155 Y123.029 E62.55367
G1 X154.7 Y124.25 E62.59548
G1 X154.021 Y125.56 E62.64456
G1 X153.026 Y126.488 E62.68981
G1 X151.729 Y127.262 E62.74005
G1 X150.462 Y127.465 E62.78273
G1 X145.37 Y127.5 E62.95209
G1 X141.54 Y128.005 E63.08058
G1 X137.424 Y128.454 E63.21829
G1 X133.294 Y128.833 E63.35623
G1 X129.167 Y129.12 E63.49383
G1 X125.022 Y129.336 E63.63188
G1 X120.88 Y129.459 E63.7697
G1 X116.787 Y129.5 E63.90584
G1 X103.082 Y129.499 E64.36167
G1 X99.013 Y129.459 E64.49702
G1 X94.879 Y129.327 E64.63458
G1 X90.733 Y129.119 E64.77265
G1 X86.606 Y128.821 E64.91028
G1 X82.47 Y128.454 E65.04838
G1 X78.359 Y127.992 E65.18597
G1 X74.64 Y127.5 E65.31075
G1 X69.471 Y127.5 E65.48267
G1 X68.25 Y127.2 E65.52449
G1 X66.94 Y126.521 E65.57356
G1 X66.012 Y125.526 E65.61881
G1 X65.238 Y124.229 E65.66905
G1 X65.04 Y123.024 E65.70967
G1 X65 Y96.971 E66.57619
G1 X65.3 Y95.75 E66.61801
G1 X65.979 Y94.44 E66.66709
G1 X66.974 Y93.512 E66.71234
M204 S2000
G0 F7500 X67.216 Y93.834
M204 S500
G1 F1500 X68.411 Y93.121 E66.75862
G1 X69.541 Y92.935 E66.79671
G1 X74.661 Y92.9 E66.96701
G1 X78.503 Y92.393 E67.0959
G1 X82.613 Y91.944 E67.23342
G1 X86.734 Y91.566 E67.37106
G1 X90.854 Y91.279 E67.50842
G1 X94.99 Y91.064 E67.64617
G1 X99.124 Y90.941 E67.78373
G1 X103.213 Y90.9 E67.91974
G1 X116.914 Y90.901 E68.37543
G1 X120.974 Y90.941 E68.51048
G1 X125.102 Y91.073 E68.64784
G1 X129.238 Y91.28 E68.78558
G1 X133.359 Y91.577 E68.923
G1 X137.485 Y91.944 E69.06077
G1 X141.589 Y92.405 E69.19813
G1 X145.331 Y92.9 E69.32367
G1 X150.483 Y92.9 E69.49503
