;FLAVOR:Marlin
;TIME:21673
;Filament used: 15.4078m
;Layer height: 0.2
;MINX:61.777
;MINY:50.76
;MINZ:0.2
;MAXX:158.821
;MAXY:169.24
;MAXZ:26
;TARGET_MACHINE.NAME:Creality Ender-3 S1
;Generated with Cura_SteamEngine 5.6.0
M82 ;absolute extrusion mode
; Ender 3 S1 Start G-code
; M413 S0 ; Disable power loss recovery
G92 E0 ; Reset Extruder

; Prep surfaces before auto home for better accuracy
M140 S70
M104 S210.0

G28 ; Home all axes
G1 Z10.0 F3000 ; Move Z Axis up little to prevent scratching of Heat Bed
G1 X0 Y0

M190 S70
M109 S210.0

G1 X0.1 Y20 Z0.3 F5000.0 ; Move to start position
G1 X0.1 Y200.0 Z0.3 F1500.0 E15 ; Draw the first line
G1 X0.4 Y200.0 Z0.3 F5000.0 ; Move to side a little
G1 X0.4 Y20 Z0.3 F1500.0 E30 ; Draw the second line
G92 E0 ; Reset Extruder
G1 Z2.0 F3000 ; Move Z Axis up little to prevent scratching of Heat Bed
G1 X5 Y20 Z0.3 F5000.0 ; Move over to prevent blob squish

G92 E0
G92 E0
G1 F2400 E-0.8
;LAYER_COUNT:130
;LAYER:0
M107
M204 S2000
G0 F7200 X64.879 Y53.869 Z0.2
M204 S500
;TYPE:SKIRT
G1 F2400 E0
G1 F1500 X66.955 Y52.251 E0.08754
G1 X69.573 Y51.084 E0.18288
G1 X72.093 Y50.794 E0.26725
G1 X74.243 Y50.767 E0.33876
G1 X75.024 Y50.974 E0.36563
G1 X144.966 Y50.973 E2.69191
G1 X145.715 Y50.76 E2.71781
G1 X148.449 Y50.831 E2.80878
G1 X150.359 Y51.083 E2.87285
G1 X152.976 Y52.184 E2.96729
G1 X155.274 Y54.003 E3.06476
G1 X156.632 Y55.917 E3.14282
G1 X157.719 Y57.91 E3.21833
G1 X158.221 Y59.858 E3.28523
G1 X158.223 Y61.815 E3.35032
G1 X158.027 Y62.565 E3.37611
G1 X158.027 Y102.104 E4.69118
G1 X158.189 Y102.377 E4.70174
G1 X158.596 Y104.349 E4.76871
G1 X158.639 Y114.305 E5.09985
G1 X158.821 Y115.41 E5.1371
G1 X158.622 Y117.442 E5.20501
G1 X158.026 Y119.057 E5.26226
G1 X158.026 Y157.374 E6.53669
G1 X158.218 Y158.045 E6.5599
G1 X158.221 Y160.006 E6.62513
G1 X157.769 Y162.061 E6.69511
G1 X156.113 Y164.869 E6.80354
G1 X155.121 Y166.131 E6.85693
G1 X153.045 Y167.749 E6.94447
G1 X150.427 Y168.916 E7.0398
G1 X147.907 Y169.206 E7.12417
G1 X145.757 Y169.233 E7.19569
G1 X144.976 Y169.026 E7.22256
G1 X75.034 Y169.027 E9.54884
G1 X74.285 Y169.24 E9.57474
G1 X71.551 Y169.169 E9.6657
G1 X69.641 Y168.917 E9.72978
G1 X67.035 Y167.819 E9.82384
G1 X64.815 Y166.089 E9.91745
G1 X63.306 Y163.986 E10.00353
G1 X62.352 Y162.225 E10.07015
G1 X61.779 Y160.272 E10.13784
G1 X61.777 Y158.181 E10.20739
G1 X61.973 Y157.432 E10.23314
G1 X61.974 Y62.622 E13.38653
G1 X61.782 Y61.955 E13.40962
G1 X61.779 Y59.994 E13.47484
G1 X62.231 Y57.939 E13.54483
G1 X63.887 Y55.131 E13.65325
G1 X64.879 Y53.869 E13.70664
M204 S2000
G0 F7200 X65.163 Y54.155
M204 S500
G1 F1500 X67.165 Y52.595 E13.79106
G1 X69.68 Y51.474 E13.88264
G1 X72.098 Y51.194 E13.9636
G1 X74.193 Y51.168 E14.03329
G1 X74.971 Y51.374 E14.06005
G1 X145.022 Y51.373 E16.38996
G1 X145.766 Y51.162 E16.41568
G1 X148.397 Y51.228 E16.50322
G1 X150.254 Y51.473 E16.56552
G1 X152.771 Y52.532 E16.65634
G1 X154.981 Y54.281 E16.75008
G1 X156.281 Y56.109 E16.82468
G1 X157.345 Y58.059 E16.89857
G1 X157.821 Y59.908 E16.96207
G1 X157.823 Y61.764 E17.0238
G1 X157.627 Y62.514 E17.04958
G1 X157.627 Y102.215 E18.37005
G1 X157.811 Y102.524 E18.38201
G1 X158.196 Y104.392 E18.44544
G1 X158.239 Y114.341 E18.77635
G1 X158.418 Y115.425 E18.81289
G1 X158.229 Y117.353 E18.87733
G1 X157.626 Y118.987 E18.93526
G1 X157.626 Y157.432 E20.21394
G1 X157.818 Y158.103 E20.23715
G1 X157.821 Y159.961 E20.29895
G1 X157.392 Y161.913 E20.36543
G1 X155.798 Y164.622 E20.46997
G1 X154.837 Y165.845 E20.5217
G1 X152.835 Y167.405 E20.60612
G1 X150.32 Y168.526 E20.6977
G1 X147.902 Y168.806 E20.77866
G1 X145.807 Y168.832 E20.84834
G1 X145.029 Y168.626 E20.87511
G1 X74.978 Y168.627 E23.20502
G1 X74.234 Y168.838 E23.23074
G1 X71.603 Y168.772 E23.31827
G1 X69.746 Y168.527 E23.38057
G1 X67.24 Y167.471 E23.47102
G1 X65.107 Y165.809 E23.56096
G1 X63.658 Y163.795 E23.64348
G1 X62.724 Y162.071 E23.70869
G1 X62.179 Y160.213 E23.7731
G1 X62.177 Y158.232 E23.83898
G1 X62.373 Y157.483 E23.86473
G1 X62.374 Y62.568 E27.02162
G1 X62.182 Y61.9 E27.04474
G1 X62.179 Y60.039 E27.10663
G1 X62.608 Y58.087 E27.17311
G1 X64.202 Y55.378 E27.27765
G1 X65.163 Y54.155 E27.32938
M204 S2000
G0 F7200 X65.445 Y54.443
M204 S500
G1 F1500 X67.375 Y52.939 E27.41076
G1 X69.787 Y51.864 E27.49859
G1 X72.103 Y51.594 E27.57615
G1 X74.143 Y51.569 E27.644
G1 X74.918 Y51.774 E27.67067
G1 X145.078 Y51.773 E30.0042
G1 X145.817 Y51.564 E30.02974
G1 X148.345 Y51.625 E30.11385
G1 X150.149 Y51.863 E30.17437
G1 X152.566 Y52.88 E30.26158
G1 X154.688 Y54.559 E30.35158
G1 X155.93 Y56.301 E30.42274
G1 X156.971 Y58.208 E30.495
G1 X157.421 Y59.958 E30.5551
G1 X157.423 Y61.713 E30.61347
G1 X157.227 Y62.464 E30.63929
G1 X157.227 Y102.325 E31.96507
G1 X157.432 Y102.67 E31.97842
G1 X157.796 Y104.435 E32.03836
G1 X157.839 Y114.377 E32.36903
G1 X158.015 Y115.44 E32.40487
G1 X157.836 Y117.26 E32.46569
G1 X157.272 Y118.799 E32.52021
G1 X157.226 Y118.895 E32.52375
G1 X157.226 Y157.49 E33.80743
G1 X157.418 Y158.161 E33.83064
G1 X157.421 Y159.916 E33.88901
G1 X157.014 Y161.767 E33.95205
G1 X155.484 Y164.375 E34.05261
G1 X154.555 Y165.557 E34.10262
G1 X152.625 Y167.061 E34.184
G1 X150.213 Y168.136 E34.27183
G1 X147.897 Y168.406 E34.34938
G1 X145.857 Y168.431 E34.41724
G1 X145.082 Y168.226 E34.4439
G1 X74.922 Y168.227 E36.77743
G1 X74.183 Y168.436 E36.80297
G1 X71.655 Y168.375 E36.88708
G1 X69.851 Y168.137 E36.9476
G1 X67.442 Y167.122 E37.03455
G1 X65.398 Y165.529 E37.12074
G1 X64.01 Y163.604 E37.19967
G1 X63.096 Y161.917 E37.26349
G1 X62.579 Y160.154 E37.32459
G1 X62.577 Y158.283 E37.38682
G1 X62.773 Y157.534 E37.41258
G1 X62.774 Y62.514 E40.57295
G1 X62.582 Y61.845 E40.5961
G1 X62.579 Y60.084 E40.65467
G1 X62.986 Y58.233 E40.71771
G1 X64.516 Y55.625 E40.81828
G1 X65.445 Y54.443 E40.86828
M204 S2000
G0 F7200 X65.729 Y54.729
M204 S500
G1 F1500 X67.585 Y53.283 E40.94653
G1 X69.894 Y52.254 E41.03061
G1 X72.108 Y51.994 E41.10476
G1 X74.093 Y51.97 E41.17078
G1 X74.865 Y52.174 E41.19734
G1 X145.134 Y52.173 E43.5345
G1 X145.868 Y51.965 E43.55987
G1 X148.293 Y52.022 E43.64055
G1 X150.044 Y52.253 E43.69929
G1 X152.361 Y53.228 E43.7829
G1 X154.395 Y54.838 E43.86918
G1 X155.604 Y56.533 E43.93843
G1 X156.596 Y58.355 E44.00743
G1 X157.021 Y60.008 E44.0642
G1 X157.023 Y61.662 E44.11921
G1 X156.827 Y62.413 E44.14502
G1 X156.827 Y102.436 E45.47619
G1 X157.054 Y102.817 E45.49094
G1 X157.396 Y104.478 E45.54735
G1 X157.439 Y114.414 E45.87782
G1 X157.612 Y115.456 E45.91295
G1 X157.443 Y117.168 E45.97017
G1 X156.896 Y118.661 E46.02306
G1 X156.826 Y118.799 E46.0282
G1 X156.826 Y157.548 E47.317
G1 X157.018 Y158.219 E47.34022
G1 X157.021 Y159.871 E47.39516
G1 X156.636 Y161.621 E47.45476
G1 X155.169 Y164.128 E47.55137
G1 X154.271 Y165.271 E47.59971
G1 X152.415 Y166.717 E47.67797
G1 X150.106 Y167.746 E47.76205
G1 X147.892 Y168.006 E47.83619
G1 X145.907 Y168.03 E47.90222
G1 X145.135 Y167.826 E47.92878
G1 X74.866 Y167.827 E50.26593
G1 X74.132 Y168.035 E50.29131
G1 X71.707 Y167.978 E50.37198
G1 X69.956 Y167.747 E50.43073
G1 X67.647 Y166.774 E50.51406
G1 X65.687 Y165.247 E50.5967
G1 X64.362 Y163.414 E50.67193
G1 X63.469 Y161.765 E50.7343
G1 X62.979 Y160.095 E50.79219
G1 X62.977 Y158.334 E50.85076
G1 X63.173 Y157.585 E50.87651
G1 X63.174 Y62.458 E54.04045
G1 X62.982 Y61.787 E54.06366
G1 X62.979 Y60.129 E54.1188
G1 X63.364 Y58.379 E54.1784
G1 X64.831 Y55.872 E54.27501
G1 X65.729 Y54.729 E54.32336
M204 S2000
G0 F7200 X66.015 Y55.013
M204 S500
G1 F1500 X67.792 Y53.628 E54.39829
G1 X70.001 Y52.644 E54.47872
G1 X72.113 Y52.394 E54.54946
G1 X74.043 Y52.371 E54.61366
G1 X74.812 Y52.574 E54.64011
G1 X145.19 Y52.573 E56.98089
G1 X145.919 Y52.366 E57.0061
G1 X148.241 Y52.419 E57.08335
G1 X149.939 Y52.643 E57.14031
G1 X152.156 Y53.576 E57.22031
G1 X154.102 Y55.117 E57.30287
G1 X155.278 Y56.765 E57.37021
G1 X156.222 Y58.503 E57.43599
G1 X156.621 Y60.057 E57.48936
G1 X156.623 Y61.611 E57.54104
G1 X156.427 Y62.362 E57.56686
G1 X156.427 Y102.546 E58.90338
G1 X156.675 Y102.963 E58.91952
G1 X156.996 Y104.521 E58.97243
G1 X157.039 Y114.46 E59.303
G1 X157.07 Y114.601 E59.3078
G1 X157.209 Y115.47 E59.33707
G1 X157.05 Y117.076 E59.39075
G1 X156.52 Y118.523 E59.44201
G1 X156.426 Y118.699 E59.44864
G1 X156.426 Y157.606 E60.74269
G1 X156.618 Y158.277 E60.76591
G1 X156.621 Y159.826 E60.81743
G1 X156.258 Y161.475 E60.87359
G1 X154.854 Y163.881 E60.96624
G1 X153.985 Y164.987 E61.01302
G1 X152.208 Y166.372 E61.08796
G1 X149.999 Y167.356 E61.16839
G1 X147.887 Y167.606 E61.23912
G1 X145.957 Y167.629 E61.30332
G1 X145.188 Y167.426 E61.32977
G1 X74.81 Y167.427 E63.67055
G1 X74.081 Y167.634 E63.69576
G1 X71.759 Y167.581 E63.77301
G1 X70.061 Y167.357 E63.82997
G1 X67.852 Y166.426 E63.90971
G1 X65.978 Y164.966 E63.98872
G1 X64.714 Y163.223 E64.06033
G1 X63.84 Y161.61 E64.12135
G1 X63.379 Y160.037 E64.17587
G1 X63.377 Y158.385 E64.23081
G1 X63.573 Y157.636 E64.25656
G1 X63.574 Y62.4 E67.42413
G1 X63.382 Y61.729 E67.44734
G1 X63.379 Y60.174 E67.49906
G1 X63.742 Y58.525 E67.55522
G1 X65.146 Y56.119 E67.64787
G1 X66.015 Y55.013 E67.69465
M204 S2000
G0 F7200 X66.299 Y55.299
M204 S500
G1 F1500 X68.002 Y53.972 E67.76646
G1 X70.108 Y53.034 E67.84314
G1 X72.118 Y52.794 E67.91047
G1 X73.993 Y52.772 E67.97283
G1 X74.759 Y52.974 E67.99918
G1 X145.246 Y52.973 E70.34359
G1 X145.97 Y52.767 E70.36862
G1 X148.189 Y52.816 E70.44245
G1 X149.834 Y53.033 E70.49763
G1 X151.951 Y53.924 E70.57403
G1 X153.809 Y55.396 E70.65287
G1 X154.952 Y56.997 E70.7183
G1 X155.847 Y58.651 E70.78085
G1 X156.221 Y60.107 E70.83084
G1 X156.223 Y61.56 E70.87917
G1 X156.027 Y62.311 E70.90499
G1 X156.027 Y102.656 E72.24687
G1 X156.296 Y103.109 E72.26439
G1 X156.596 Y104.564 E72.3138
G1 X156.639 Y114.508 E72.64454
G1 X156.675 Y114.664 E72.64987
G1 X156.806 Y115.482 E72.67742
G1 X156.657 Y116.984 E72.72762
G1 X156.144 Y118.385 E72.77725
G1 X156.026 Y118.594 E72.78523
G1 X156.026 Y157.664 E74.0847
G1 X156.218 Y158.335 E74.10792
G1 X156.221 Y159.781 E74.15601
G1 X155.88 Y161.328 E74.2087
G1 X154.539 Y163.634 E74.29742
G1 X153.701 Y164.701 E74.34255
G1 X151.998 Y166.028 E74.41436
G1 X149.892 Y166.966 E74.49104
G1 X147.882 Y167.206 E74.55836
G1 X146.007 Y167.228 E74.62073
G1 X145.241 Y167.026 E74.64708
G1 X74.754 Y167.027 E76.99149
G1 X74.03 Y167.233 E77.01652
G1 X71.811 Y167.184 E77.09034
G1 X70.166 Y166.967 E77.14553
G1 X68.054 Y166.077 E77.22176
G1 X66.268 Y164.685 E77.29707
G1 X65.066 Y163.033 E77.36502
G1 X64.213 Y161.458 E77.4246
G1 X63.779 Y159.978 E77.47589
G1 X63.777 Y158.436 E77.52718
G1 X63.973 Y157.687 E77.55293
G1 X63.974 Y62.342 E80.72412
G1 X63.782 Y61.671 E80.74733
G1 X63.779 Y60.219 E80.79563
G1 X64.12 Y58.672 E80.84832
G1 X65.461 Y56.366 E80.93704
G1 X66.299 Y55.299 E80.98216
M204 S2000
G0 F7200 X66.583 Y55.585
M204 S500
G1 F1500 X68.212 Y54.316 E81.05085
G1 X70.215 Y53.424 E81.12377
G1 X72.123 Y53.194 E81.18769
G1 X73.943 Y53.173 E81.24823
G1 X74.706 Y53.374 E81.27447
G1 X145.303 Y53.373 E83.62254
G1 X146.023 Y53.168 E83.64744
G1 X148.137 Y53.213 E83.71777
G1 X149.729 Y53.423 E83.77117
G1 X151.746 Y54.272 E83.84396
G1 X153.517 Y55.675 E83.91911
G1 X154.6 Y57.187 E83.98097
G1 X155.472 Y58.799 E84.04192
G1 X155.821 Y60.157 E84.08856
G1 X155.823 Y61.509 E84.13353
G1 X155.627 Y62.26 E84.15934
G1 X155.627 Y102.767 E85.50661
G1 X155.918 Y103.256 E85.52554
G1 X156.196 Y104.607 E85.57141
G1 X156.239 Y114.556 E85.90232
G1 X156.28 Y114.727 E85.90817
G1 X156.403 Y115.494 E85.93401
G1 X156.264 Y116.893 E85.98077
G1 X155.768 Y118.248 E86.02876
G1 X155.626 Y118.482 E86.03786
G1 X155.626 Y157.722 E87.34299
G1 X155.818 Y158.393 E87.3662
G1 X155.821 Y159.736 E87.41087
G1 X155.502 Y161.181 E87.46009
G1 X154.224 Y163.387 E87.54488
G1 X153.417 Y164.415 E87.58835
G1 X151.788 Y165.684 E87.65703
G1 X149.785 Y166.576 E87.72996
G1 X147.877 Y166.806 E87.79388
G1 X146.057 Y166.827 E87.85442
G1 X145.294 Y166.626 E87.88066
G1 X74.697 Y166.627 E90.22873
G1 X73.977 Y166.832 E90.25363
G1 X71.863 Y166.787 E90.32395
G1 X70.271 Y166.577 E90.37736
G1 X68.256 Y165.728 E90.45009
G1 X66.559 Y164.405 E90.52166
G1 X65.418 Y162.843 E90.58599
G1 X64.586 Y161.306 E90.64412
G1 X64.179 Y159.919 E90.6922
G1 X64.177 Y158.487 E90.73983
G1 X64.373 Y157.738 E90.76558
G1 X64.374 Y62.284 E93.94039
G1 X64.182 Y61.613 E93.96361
G1 X64.179 Y60.264 E94.00847
G1 X64.498 Y58.819 E94.05769
G1 X65.776 Y56.613 E94.14249
G1 X66.583 Y55.585 E94.18596
M204 S2000
G0 F7200 X66.869 Y55.869
M204 S500
G1 F1500 X68.419 Y54.661 E94.25132
G1 X70.322 Y53.814 E94.3206
G1 X72.128 Y53.594 E94.38111
G1 X73.893 Y53.574 E94.43982
G1 X74.653 Y53.774 E94.46595
G1 X145.36 Y53.773 E96.81768
G1 X146.076 Y53.569 E96.84244
G1 X148.085 Y53.61 E96.90927
G1 X149.624 Y53.813 E96.9609
G1 X151.541 Y54.62 E97.03008
G1 X153.225 Y55.954 E97.10154
G1 X154.248 Y57.377 E97.15983
G1 X155.098 Y58.948 E97.21924
G1 X155.421 Y60.206 E97.26244
G1 X155.423 Y61.458 E97.30408
G1 X155.227 Y62.209 E97.32989
G1 X155.227 Y102.877 E98.68252
G1 X155.539 Y103.402 E98.70283
G1 X155.796 Y104.65 E98.74521
G1 X155.839 Y114.606 E99.07635
G1 X155.885 Y114.79 E99.08266
G1 X156 Y115.506 E99.10678
G1 X155.871 Y116.802 E99.1501
G1 X155.392 Y118.111 E99.19646
G1 X155.226 Y118.36 E99.20641
G1 X155.226 Y157.78 E100.51752
G1 X155.418 Y158.451 E100.54074
G1 X155.421 Y159.691 E100.58198
G1 X155.124 Y161.036 E100.62779
G1 X153.909 Y163.14 E100.7086
G1 X153.131 Y164.131 E100.75051
G1 X151.581 Y165.339 E100.81587
G1 X149.678 Y166.186 E100.88515
G1 X147.872 Y166.406 E100.94566
G1 X146.107 Y166.426 E101.00437
G1 X145.347 Y166.226 E101.03051
G1 X74.64 Y166.227 E103.38223
G1 X73.924 Y166.431 E103.40699
G1 X71.915 Y166.39 E103.47383
G1 X70.376 Y166.187 E103.52546
G1 X68.461 Y165.38 E103.59457
G1 X66.848 Y164.123 E103.66259
G1 X65.77 Y162.652 E103.72325
G1 X64.957 Y161.151 E103.78002
G1 X64.579 Y159.861 E103.82473
G1 X64.577 Y158.538 E103.86874
G1 X64.773 Y157.789 E103.89449
G1 X64.774 Y62.227 E107.07289
G1 X64.582 Y61.555 E107.09614
G1 X64.579 Y60.309 E107.13758
G1 X64.876 Y58.964 E107.18339
G1 X66.091 Y56.86 E107.2642
G1 X66.869 Y55.869 E107.30611
M204 S2000
G0 F7200 X67.153 Y56.155
M204 S500
G1 F1500 X68.629 Y55.005 E107.36834
G1 X70.429 Y54.204 E107.43387
G1 X72.132 Y53.994 E107.49094
G1 X73.843 Y53.975 E107.54785
G1 X74.6 Y54.174 E107.57388
G1 X145.417 Y54.173 E109.92927
G1 X146.129 Y53.97 E109.95389
G1 X148.033 Y54.007 E110.01723
G1 X149.519 Y54.203 E110.06708
G1 X151.336 Y54.968 E110.13265
G1 X152.934 Y56.234 E110.20046
G1 X153.896 Y57.567 E110.25514
G1 X154.723 Y59.096 E110.31295
G1 X155.021 Y60.256 E110.35279
G1 X155.023 Y61.407 E110.39107
G1 X154.827 Y62.158 E110.41689
G1 X154.827 Y102.986 E111.77483
G1 X155.16 Y103.548 E111.79656
G1 X155.396 Y104.693 E111.83544
G1 X155.439 Y114.657 E112.16685
G1 X155.49 Y114.854 E112.17362
G1 X155.597 Y115.519 E112.19602
G1 X155.478 Y116.711 E112.23586
G1 X155.016 Y117.974 E112.28059
G1 X154.826 Y118.226 E112.29109
G1 X154.826 Y157.838 E113.60859
G1 X155.018 Y158.509 E113.6318
G1 X155.021 Y159.646 E113.66962
G1 X154.746 Y160.89 E113.71199
G1 X153.594 Y162.893 E113.78885
G1 X152.847 Y163.845 E113.8291
G1 X151.371 Y164.995 E113.89133
G1 X149.571 Y165.796 E113.95686
G1 X147.868 Y166.006 E114.01393
G1 X146.157 Y166.025 E114.07084
G1 X145.4 Y165.826 E114.09687
G1 X74.583 Y165.827 E116.45226
G1 X73.871 Y166.03 E116.47688
G1 X71.967 Y165.993 E116.54022
G1 X70.481 Y165.797 E116.59007
G1 X68.666 Y165.032 E116.65558
G1 X67.136 Y163.84 E116.72009
G1 X66.122 Y162.461 E116.77702
G1 X65.328 Y160.996 E116.83245
G1 X64.979 Y159.803 E116.87379
G1 X64.977 Y158.589 E116.91417
G1 X65.173 Y157.84 E116.93992
G1 X65.174 Y62.17 E120.12191
