;FLAVOR:Marlin
;TIME:7047
;Filament used: 4.5247m
;Layer height: 0.2
;MINX:62.2
;MINY:87.7
;MINZ:0.2
;MAXX:157.8
;MAXY:132.3
;MAXZ:20
;TARGET_MACHINE.NAME:Creality Ender-3 S1
;Generated with Cura_SteamEngine 5.6.0
M82 ;absolute extrusion mode
; Ender 3 S1 Start G-code
; M413 S0 ; Disable power loss recovery
G92 E0 ; Reset Extruder

; Prep surfaces before auto home for better accuracy
M140 S70
M104 S210.0

G28 ; Home all axes
G1 Z10.0 F3000 ; Move Z Axis up little to prevent scratching of Heat Bed
G1 X0 Y0

M190 S70
M109 S210.0

G1 X0.1 Y20 Z0.3 F5000.0 ; Move to start position
G1 X0.1 Y200.0 Z0.3 F1500.0 E15 ; Draw the first line
G1 X0.4 Y200.0 Z0.3 F5000.0 ; Move to side a little
G1 X0.4 Y20 Z0.3 F1500.0 E30 ; Draw the second line
G92 E0 ; Reset Extruder
G1 Z2.0 F3000 ; Move Z Axis up little to prevent scratching of Heat Bed
G1 X5 Y20 Z0.3 F5000.0 ; Move over to prevent blob squish

G92 E0
G92 E0
G1 F2400 E-0.8
;LAYER_COUNT:100
;LAYER:0
M107
M204 S2000
G0 F7200 X65.294 Y91.25 Z0.2
M204 S500
;TYPE:SKIRT
G1 F2400 E0
G1 F1500 X67.004 Y90.241 E0.06604
G1 X67.533 Y90.018 E0.08513
G1 X69.349 Y89.747 E0.1462
G1 X74.501 Y89.7 E0.31756
G1 X76.646 Y89.405 E0.38958
G1 X79.267 Y89.079 E0.47743
G1 X81.954 Y88.793 E0.5673
G1 X84.632 Y88.527 E0.65681
G1 X87.246 Y88.315 E0.74404
G1 X89.94 Y88.13 E0.83385
G1 X92.627 Y87.963 E0.92339
G1 X95.251 Y87.849 E1.01075
G1 X97.981 Y87.765 E1.10159
G1 X100.633 Y87.717 E1.18981
G1 X103.155 Y87.7 E1.2737
G1 X116.896 Y87.7 E1.73072
G1 X119.556 Y87.718 E1.8192
G1 X122.238 Y87.767 E1.90842
G1 X124.931 Y87.854 E1.99803
G1 X127.576 Y87.987 E2.08612
G1 X130.242 Y88.137 E2.17493
G1 X132.935 Y88.327 E2.26472
G1 X135.561 Y88.555 E2.35239
G1 X138.255 Y88.806 E2.44238
G1 X140.91 Y89.104 E2.53124
G1 X143.554 Y89.438 E2.61988
G1 X145.486 Y89.7 E2.68473
G1 X150.853 Y89.7 E2.86324
G1 X152.749 Y90.166 E2.92817
G1 X154.777 Y91.219 E3.00418
G1 X156.236 Y92.78 E3.07524
G1 X157.443 Y94.803 E3.15359
G1 X157.725 Y96.521 E3.2115
G1 X157.8 Y123.353 E4.10394
G1 X157.334 Y125.249 E4.16888
G1 X156.281 Y127.277 E4.24488
G1 X154.706 Y128.75 E4.3166
G1 X152.996 Y129.759 E4.38264
G1 X152.467 Y129.982 E4.40173
G1 X150.651 Y130.253 E4.4628
G1 X145.499 Y130.3 E4.63417
G1 X143.354 Y130.595 E4.70618
G1 X140.733 Y130.921 E4.79403
G1 X138.046 Y131.207 E4.8839
G1 X135.368 Y131.473 E4.97341
G1 X132.754 Y131.685 E5.06064
G1 X130.06 Y131.87 E5.15045
G1 X127.373 Y132.037 E5.24
G1 X124.749 Y132.151 E5.32735
G1 X122.019 Y132.235 E5.4182
G1 X119.367 Y132.283 E5.50642
G1 X116.845 Y132.3 E5.5903
G1 X103.104 Y132.3 E6.04733
G1 X100.444 Y132.282 E6.1358
G1 X97.762 Y132.233 E6.22502
G1 X95.069 Y132.146 E6.31464
G1 X92.424 Y132.013 E6.40272
G1 X89.758 Y131.863 E6.49153
G1 X87.065 Y131.673 E6.58132
G1 X84.439 Y131.445 E6.66899
G1 X81.745 Y131.194 E6.75898
G1 X79.09 Y130.896 E6.84784
G1 X76.446 Y130.562 E6.93648
G1 X74.514 Y130.3 E7.00133
G1 X69.147 Y130.3 E7.17984
G1 X67.251 Y129.834 E7.24478
G1 X65.223 Y128.781 E7.32078
G1 X63.764 Y127.22 E7.39184
G1 X62.557 Y125.197 E7.47019
G1 X62.275 Y123.479 E7.5281
G1 X62.2 Y96.647 E8.42054
G1 X62.666 Y94.751 E8.48548
G1 X63.719 Y92.723 E8.56148
G1 X65.294 Y91.25 E8.6332
M204 S2000
G0 F7200 X65.534 Y91.573
M204 S500
G1 F1500 X67.159 Y90.61 E8.69603
G1 X67.641 Y90.407 E8.71343
G1 X69.408 Y90.143 E8.77285
G1 X74.527 Y90.1 E8.94311
G1 X76.695 Y89.802 E9.0159
G1 X79.309 Y89.477 E9.10351
G1 X81.994 Y89.191 E9.19332
G1 X84.664 Y88.926 E9.28256
G1 X87.273 Y88.714 E9.36962
G1 X89.965 Y88.529 E9.45937
G1 X92.644 Y88.363 E9.54864
G1 X95.263 Y88.249 E9.63583
G1 X97.988 Y88.165 E9.72651
G1 X100.636 Y88.117 E9.8146
G1 X103.158 Y88.1 E9.89848
G1 X116.893 Y88.1 E10.35531
G1 X119.549 Y88.118 E10.44365
G1 X122.225 Y88.167 E10.53267
G1 X124.911 Y88.253 E10.62205
G1 X127.553 Y88.386 E10.71004
G1 X130.214 Y88.536 E10.79868
G1 X132.9 Y88.725 E10.88824
G1 X135.524 Y88.953 E10.97584
G1 X138.21 Y89.203 E11.06557
G1 X140.86 Y89.501 E11.15426
G1 X143.5 Y89.834 E11.24276
G1 X145.462 Y90.1 E11.30862
G1 X150.807 Y90.1 E11.48639
G1 X152.606 Y90.542 E11.54801
G1 X154.532 Y91.542 E11.62019
G1 X155.912 Y93.019 E11.68742
G1 X157.06 Y94.943 E11.76194
G1 X157.33 Y96.586 E11.81732
G1 X157.4 Y123.307 E12.70606
G1 X156.958 Y125.106 E12.76768
G1 X155.958 Y127.032 E12.83986
G1 X154.466 Y128.427 E12.90779
G1 X152.841 Y129.39 E12.97062
G1 X152.359 Y129.593 E12.98801
G1 X150.592 Y129.857 E13.04744
G1 X145.473 Y129.9 E13.2177
G1 X143.305 Y130.198 E13.29049
G1 X140.691 Y130.523 E13.3781
G1 X138.006 Y130.809 E13.46791
G1 X135.336 Y131.074 E13.55715
G1 X132.727 Y131.286 E13.64421
G1 X130.035 Y131.471 E13.73396
G1 X127.356 Y131.637 E13.82323
G1 X124.737 Y131.751 E13.91042
G1 X122.012 Y131.835 E14.0011
G1 X119.364 Y131.883 E14.08919
G1 X116.842 Y131.9 E14.17307
G1 X103.107 Y131.9 E14.6299
G1 X100.451 Y131.882 E14.71824
G1 X97.775 Y131.833 E14.80726
G1 X95.089 Y131.747 E14.89664
G1 X92.447 Y131.614 E14.98463
G1 X89.786 Y131.464 E15.07327
G1 X87.1 Y131.275 E15.16283
G1 X84.476 Y131.047 E15.25043
G1 X81.79 Y130.797 E15.34015
G1 X79.14 Y130.499 E15.42885
G1 X76.5 Y130.166 E15.51735
G1 X74.538 Y129.9 E15.58321
G1 X69.193 Y129.9 E15.76098
G1 X67.394 Y129.458 E15.8226
G1 X65.468 Y128.458 E15.89477
G1 X64.088 Y126.981 E15.96201
G1 X62.94 Y125.057 E16.03652
G1 X62.67 Y123.414 E16.0919
G1 X62.6 Y96.693 E16.98065
G1 X63.042 Y94.894 E17.04226
G1 X64.042 Y92.968 E17.11444
G1 X65.534 Y91.573 E17.18238
M204 S2000
G0 F7200 X65.773 Y91.897
M204 S500
G1 F1500 X67.314 Y90.979 E17.24204
G1 X67.749 Y90.796 E17.25773
G1 X69.467 Y90.539 E17.31551
G1 X74.553 Y90.5 E17.48468
G1 X76.744 Y90.199 E17.55823
G1 X79.351 Y89.875 E17.64561
G1 X82.033 Y89.589 E17.73532
G1 X84.696 Y89.325 E17.82433
G1 X87.3 Y89.113 E17.91122
G1 X89.99 Y88.928 E18.0009
G1 X92.661 Y88.763 E18.08991
G1 X95.275 Y88.649 E18.17694
G1 X97.995 Y88.565 E18.26745
G1 X100.639 Y88.517 E18.3554
G1 X103.161 Y88.5 E18.43928
G1 X116.89 Y88.5 E18.89591
G1 X119.542 Y88.518 E18.98412
G1 X122.212 Y88.567 E19.07294
G1 X124.891 Y88.653 E19.16209
G1 X127.53 Y88.785 E19.24997
G1 X130.186 Y88.935 E19.33845
G1 X132.865 Y89.123 E19.42778
G1 X135.487 Y89.351 E19.51531
G1 X138.165 Y89.601 E19.60477
G1 X140.81 Y89.898 E19.6933
G1 X143.446 Y90.23 E19.78166
G1 X145.437 Y90.5 E19.84849
G1 X150.76 Y90.5 E20.02553
G1 X152.464 Y90.919 E20.0839
G1 X154.287 Y91.865 E20.15221
G1 X155.591 Y93.261 E20.21575
G1 X156.677 Y95.081 E20.28624
G1 X156.935 Y96.651 E20.33916
G1 X157 Y123.26 E21.22418
G1 X156.581 Y124.964 E21.28254
G1 X155.635 Y126.787 E21.35085
G1 X154.227 Y128.103 E21.41495
G1 X152.686 Y129.021 E21.47461
G1 X152.251 Y129.204 E21.49031
G1 X150.533 Y129.461 E21.54808
G1 X145.447 Y129.5 E21.71725
G1 X143.256 Y129.801 E21.79081
G1 X140.649 Y130.125 E21.87818
G1 X137.967 Y130.411 E21.96789
G1 X135.304 Y130.675 E22.0569
G1 X132.7 Y130.887 E22.14379
G1 X130.01 Y131.072 E22.23348
G1 X127.339 Y131.237 E22.32248
G1 X124.725 Y131.351 E22.40951
G1 X122.005 Y131.435 E22.50002
G1 X119.361 Y131.483 E22.58797
G1 X116.839 Y131.5 E22.67186
G1 X103.11 Y131.5 E23.12849
G1 X100.458 Y131.482 E23.21669
G1 X97.788 Y131.433 E23.30551
G1 X95.109 Y131.347 E23.39466
G1 X92.47 Y131.215 E23.48255
G1 X89.814 Y131.065 E23.57103
G1 X87.135 Y130.877 E23.66035
G1 X84.513 Y130.649 E23.74789
G1 X81.835 Y130.399 E23.83734
G1 X79.19 Y130.102 E23.92587
G1 X76.554 Y129.77 E24.01424
G1 X74.563 Y129.5 E24.08106
G1 X69.24 Y129.5 E24.25811
G1 X67.536 Y129.081 E24.31647
G1 X65.713 Y128.135 E24.38478
G1 X64.409 Y126.739 E24.44832
G1 X63.323 Y124.919 E24.51881
G1 X63.065 Y123.349 E24.57173
G1 X63 Y96.74 E25.45675
G1 X63.419 Y95.036 E25.51511
G1 X64.365 Y93.213 E25.58342
G1 X65.773 Y91.897 E25.64752
M204 S2000
G0 F7200 X66.012 Y92.221
M204 S500
G1 F1500 X67.519 Y91.323 E25.70587
G1 X67.856 Y91.185 E25.71798
G1 X69.526 Y90.935 E25.77415
G1 X74.579 Y90.9 E25.94221
G1 X76.793 Y90.596 E26.01654
G1 X79.393 Y90.273 E26.10368
G1 X82.072 Y89.987 E26.19329
G1 X84.729 Y89.724 E26.2821
G1 X87.327 Y89.512 E26.3688
G1 X90.015 Y89.327 E26.45841
G1 X92.678 Y89.163 E26.54715
G1 X95.287 Y89.049 E26.63401
G1 X98.002 Y88.965 E26.72435
G1 X100.642 Y88.917 E26.81217
G1 X103.164 Y88.9 E26.89606
G1 X116.887 Y88.9 E27.35249
G1 X119.535 Y88.918 E27.44056
G1 X122.199 Y88.967 E27.52918
G1 X124.871 Y89.052 E27.6181
G1 X127.507 Y89.184 E27.70588
G1 X130.158 Y89.334 E27.79419
G1 X132.83 Y89.521 E27.88328
G1 X135.45 Y89.749 E27.97075
G1 X138.12 Y89.999 E28.05995
G1 X140.76 Y90.295 E28.1483
G1 X143.392 Y90.626 E28.23653
G1 X145.413 Y90.9 E28.30437
G1 X150.714 Y90.9 E28.48068
G1 X152.321 Y91.295 E28.53572
G1 X154.042 Y92.188 E28.60021
G1 X155.27 Y93.503 E28.66005
G1 X156.294 Y95.219 E28.72651
G1 X156.54 Y96.716 E28.77697
G1 X156.6 Y123.214 E29.6583
G1 X156.205 Y124.821 E29.71334
G1 X155.312 Y126.542 E29.77783
G1 X153.988 Y127.779 E29.8381
G1 X152.481 Y128.677 E29.89644
G1 X152.144 Y128.815 E29.90855
G1 X150.474 Y129.065 E29.96472
G1 X145.421 Y129.1 E30.13279
G1 X143.207 Y129.404 E30.20711
G1 X140.607 Y129.727 E30.29426
G1 X137.928 Y130.013 E30.38387
G1 X135.271 Y130.276 E30.47267
G1 X132.673 Y130.488 E30.55937
G1 X129.985 Y130.673 E30.64898
G1 X127.322 Y130.837 E30.73772
G1 X124.713 Y130.951 E30.82458
G1 X121.998 Y131.035 E30.91492
G1 X119.358 Y131.083 E31.00274
G1 X116.836 Y131.1 E31.08663
G1 X103.113 Y131.1 E31.54306
G1 X100.465 Y131.082 E31.63113
G1 X97.801 Y131.033 E31.71975
G1 X95.129 Y130.948 E31.80867
G1 X92.493 Y130.816 E31.89645
G1 X89.842 Y130.666 E31.98477
G1 X87.17 Y130.479 E32.07385
G1 X84.55 Y130.251 E32.16133
G1 X81.88 Y130.001 E32.25052
G1 X79.24 Y129.705 E32.33888
G1 X76.608 Y129.374 E32.42711
G1 X74.587 Y129.1 E32.49494
G1 X69.286 Y129.1 E32.67125
G1 X67.679 Y128.705 E32.72629
G1 X65.958 Y127.812 E32.79078
G1 X64.73 Y126.497 E32.85062
G1 X63.706 Y124.781 E32.91709
G1 X63.46 Y123.284 E32.96754
G1 X63.4 Y96.786 E33.84887
G1 X63.795 Y95.179 E33.90391
G1 X64.688 Y93.458 E33.9684
G1 X66.012 Y92.221 E34.02867
M204 S2000
G0 F7200 X66.251 Y92.545
M204 S500
G1 F1500 X67.724 Y91.667 E34.0857
G1 X67.967 Y91.572 E34.09438
G1 X69.529 Y91.335 E34.14693
G1 X74.605 Y91.3 E34.31576
G1 X76.842 Y90.993 E34.39086
G1 X79.436 Y90.671 E34.4778
G1 X82.111 Y90.385 E34.56728
G1 X84.762 Y90.123 E34.65588
G1 X87.354 Y89.911 E34.74238
G1 X90.039 Y89.726 E34.83189
G1 X92.696 Y89.563 E34.92043
G1 X95.299 Y89.449 E35.00709
G1 X98.009 Y89.365 E35.09727
G1 X100.645 Y89.317 E35.18495
G1 X103.167 Y89.3 E35.26884
G1 X116.884 Y89.3 E35.72507
G1 X119.528 Y89.318 E35.81301
G1 X122.186 Y89.367 E35.90143
G1 X124.851 Y89.451 E35.99011
G1 X127.484 Y89.583 E36.0778
G1 X130.13 Y89.733 E36.16594
G1 X132.795 Y89.919 E36.2548
G1 X135.413 Y90.147 E36.3422
G1 X138.075 Y90.396 E36.43113
G1 X140.71 Y90.692 E36.51932
G1 X143.338 Y91.022 E36.60741
G1 X145.388 Y91.3 E36.67622
G1 X150.668 Y91.3 E36.85183
G1 X152.178 Y91.671 E36.90355
G1 X153.797 Y92.511 E36.96422
G1 X154.949 Y93.745 E37.02036
G1 X155.911 Y95.357 E37.0828
G1 X156.145 Y96.781 E37.1308
G1 X156.2 Y123.168 E38.00844
G1 X155.829 Y124.678 E38.06015
G1 X154.989 Y126.297 E38.12082
G1 X153.749 Y127.455 E38.17725
G1 X152.276 Y128.333 E38.23428
G1 X152.033 Y128.428 E38.24296
G1 X150.471 Y128.665 E38.29551
G1 X145.395 Y128.7 E38.46434
G1 X143.158 Y129.007 E38.53944
G1 X140.564 Y129.329 E38.62638
G1 X137.889 Y129.615 E38.71586
G1 X135.238 Y129.877 E38.80446
G1 X132.646 Y130.089 E38.89096
G1 X129.961 Y130.274 E38.98047
G1 X127.304 Y130.437 E39.06901
G1 X124.701 Y130.551 E39.15567
G1 X121.991 Y130.635 E39.24585
G1 X119.355 Y130.683 E39.33354
G1 X116.833 Y130.7 E39.41742
G1 X103.116 Y130.7 E39.87365
G1 X100.472 Y130.682 E39.96159
G1 X97.814 Y130.633 E40.05001
G1 X95.149 Y130.549 E40.13869
G1 X92.516 Y130.417 E40.22638
G1 X89.87 Y130.267 E40.31452
G1 X87.205 Y130.081 E40.40338
G1 X84.587 Y129.853 E40.49078
G1 X81.925 Y129.604 E40.57971
G1 X79.29 Y129.308 E40.6679
G1 X76.662 Y128.978 E40.75599
G1 X74.612 Y128.7 E40.8248
G1 X69.332 Y128.7 E41.00042
G1 X67.822 Y128.329 E41.05213
G1 X66.203 Y127.489 E41.1128
G1 X65.051 Y126.255 E41.16894
G1 X64.089 Y124.643 E41.23138
G1 X63.855 Y123.219 E41.27938
G1 X63.8 Y96.832 E42.15702
G1 X64.171 Y95.322 E42.20873
G1 X65.011 Y93.703 E42.2694
G1 X66.251 Y92.545 E42.32583
M204 S2000
G0 F7200 X66.49 Y92.869
M204 S500
G1 F1500 X67.929 Y92.011 E42.38155
G1 X68.072 Y91.96 E42.3866
G1 X69.532 Y91.735 E42.43573
G1 X74.631 Y91.7 E42.60533
G1 X76.891 Y91.39 E42.6812
G1 X79.479 Y91.069 E42.76794
G1 X82.15 Y90.783 E42.85728
G1 X84.795 Y90.522 E42.94569
G1 X87.382 Y90.31 E43.03202
G1 X90.063 Y90.125 E43.1214
G1 X92.714 Y89.963 E43.20974
G1 X95.311 Y89.849 E43.2962
G1 X98.016 Y89.765 E43.38621
G1 X100.648 Y89.717 E43.47376
G1 X103.17 Y89.7 E43.55765
G1 X116.881 Y89.7 E44.01368
G1 X119.521 Y89.718 E44.10149
G1 X122.173 Y89.767 E44.18971
G1 X124.831 Y89.851 E44.27816
G1 X127.461 Y89.982 E44.36574
G1 X130.102 Y90.132 E44.45372
G1 X132.76 Y90.317 E44.54234
G1 X135.376 Y90.545 E44.62968
G1 X138.03 Y90.794 E44.71834
G1 X140.66 Y91.089 E44.80636
G1 X143.284 Y91.418 E44.89432
G1 X145.363 Y91.7 E44.9641
G1 X150.621 Y91.7 E45.13898
G1 X152.036 Y92.048 E45.18745
G1 X153.552 Y92.834 E45.24424
G1 X154.628 Y93.987 E45.2967
G1 X155.528 Y95.495 E45.35511
G1 X155.75 Y96.846 E45.40065
G1 X155.8 Y123.121 E46.27456
G1 X155.452 Y124.536 E46.32302
G1 X154.666 Y126.052 E46.37982
G1 X153.51 Y127.131 E46.43241
G1 X152.071 Y127.989 E46.48814
G1 X151.928 Y128.04 E46.49319
G1 X150.468 Y128.265 E46.54232
G1 X145.369 Y128.3 E46.71192
G1 X143.109 Y128.61 E46.78779
G1 X140.521 Y128.931 E46.87453
G1 X137.85 Y129.217 E46.96387
G1 X135.205 Y129.478 E47.05227
G1 X132.618 Y129.69 E47.1386
G1 X129.937 Y129.875 E47.22799
G1 X127.286 Y130.037 E47.31632
G1 X124.689 Y130.151 E47.40278
G1 X121.984 Y130.235 E47.4928
G1 X119.352 Y130.283 E47.58035
G1 X116.83 Y130.3 E47.66423
G1 X103.119 Y130.3 E48.12026
G1 X100.479 Y130.282 E48.20807
G1 X97.827 Y130.233 E48.29629
G1 X95.169 Y130.149 E48.38474
G1 X92.539 Y130.018 E48.47233
G1 X89.898 Y129.868 E48.56031
G1 X87.24 Y129.683 E48.64893
G1 X84.624 Y129.455 E48.73627
G1 X81.97 Y129.206 E48.82493
G1 X79.34 Y128.911 E48.91295
G1 X76.716 Y128.582 E49.00091
G1 X74.637 Y128.3 E49.07069
G1 X69.379 Y128.3 E49.24557
G1 X67.964 Y127.952 E49.29403
G1 X66.448 Y127.166 E49.35083
G1 X65.372 Y126.013 E49.40328
G1 X64.472 Y124.505 E49.46169
G1 X64.25 Y123.154 E49.50723
G1 X64.2 Y96.879 E50.38114
G1 X64.548 Y95.464 E50.42961
G1 X65.334 Y93.948 E50.48641
G1 X66.49 Y92.869 E50.539
M204 S2000
G0 F7200 X66.729 Y93.193
M204 S500
G1 F1500 X68.134 Y92.355 E50.59341
G1 X69.535 Y92.135 E50.64058
G1 X74.657 Y92.1 E50.81094
G1 X76.94 Y91.787 E50.88759
G1 X79.522 Y91.467 E50.97412
G1 X82.189 Y91.181 E51.06333
G1 X84.828 Y90.921 E51.15153
G1 X87.41 Y90.709 E51.2377
G1 X90.087 Y90.524 E51.32695
G1 X92.732 Y90.363 E51.41508
G1 X95.323 Y90.249 E51.50134
G1 X98.023 Y90.165 E51.59119
G1 X100.651 Y90.117 E51.67861
G1 X103.173 Y90.1 E51.7625
G1 X116.878 Y90.1 E52.21833
G1 X119.514 Y90.118 E52.306
G1 X122.16 Y90.167 E52.39402
G1 X124.811 Y90.251 E52.48224
G1 X127.438 Y90.381 E52.56972
G1 X130.074 Y90.531 E52.65754
G1 X132.725 Y90.716 E52.74592
G1 X135.339 Y90.943 E52.83319
G1 X137.985 Y91.191 E52.92159
G1 X140.61 Y91.486 E53.00944
G1 X143.23 Y91.814 E53.09727
G1 X145.338 Y92.1 E53.16802
G1 X150.575 Y92.1 E53.3422
G1 X151.893 Y92.424 E53.38735
G1 X153.307 Y93.157 E53.44032
G1 X154.307 Y94.229 E53.48908
G1 X155.145 Y95.633 E53.54346
G1 X155.355 Y96.911 E53.58654
G1 X155.4 Y123.075 E54.45676
G1 X155.076 Y124.393 E54.5019
G1 X154.343 Y125.807 E54.55487
G1 X153.271 Y126.807 E54.60363
G1 X151.866 Y127.645 E54.65804
G1 X150.465 Y127.865 E54.70521
