;FLAVOR:Marlin
;TIME:6636
;Filament used: 4.40329m
;Layer height: 0.2
;MINX:84.501
;MINY:59
;MINZ:0.2
;MAXX:135.5
;MAXY:161
;MAXZ:20
;TARGET_MACHINE.NAME:Creality Ender-3 S1
;Generated with Cura_SteamEngine 5.6.0
M82 ;absolute extrusion mode
; Ender 3 S1 Start G-code
; M413 S0 ; Disable power loss recovery
G92 E0 ; Reset Extruder

; Prep surfaces before auto home for better accuracy
M140 S60
M104 S200

G28 ; Home all axes
G1 Z10.0 F3000 ; Move Z Axis up little to prevent scratching of Heat Bed
G1 X0 Y0

M190 S60
M109 S200

G1 X0.1 Y20 Z0.3 F5000.0 ; Move to start position
G1 X0.1 Y200.0 Z0.3 F1500.0 E15 ; Draw the first line
G1 X0.4 Y200.0 Z0.3 F5000.0 ; Move to side a little
G1 X0.4 Y20 Z0.3 F1500.0 E30 ; Draw the second line
G92 E0 ; Reset Extruder
G1 Z2.0 F3000 ; Move Z Axis up little to prevent scratching of Heat Bed
G1 X5 Y20 Z0.3 F5000.0 ; Move over to prevent blob squish

G92 E0
G92 E0
G1 F2400 E-0.8
;LAYER_COUNT:100
;LAYER:0
M107
M204 S2000
G0 F7500 X88.727 Y63.387 Z0.2
M204 S500
;TYPE:SKIRT
G1 F2400 E0
G1 F1500 X89.322 Y62.663 E0.03117
G1 X90.031 Y61.943 E0.06478
G1 X90.746 Y61.335 E0.09599
G1 X91.569 Y60.752 E0.12954
G1 X92.41 Y60.262 E0.16191
G1 X93.227 Y59.877 E0.19195
G1 X94.208 Y59.517 E0.22671
G1 X95.149 Y59.266 E0.2591
G1 X96.115 Y59.098 E0.29171
G1 X97.205 Y59.013 E0.32808
G1 X97.812 Y59 E0.34827
G1 X121.804 Y59 E1.14625
G1 X122.684 Y59.013 E1.17552
G1 X123.656 Y59.072 E1.20791
G1 X124.619 Y59.218 E1.2403
G1 X125.566 Y59.449 E1.27272
G1 X126.454 Y59.749 E1.3039
G1 X127.346 Y60.139 E1.33628
G1 X128.229 Y60.626 E1.36982
G1 X128.98 Y61.128 E1.39986
G1 X129.795 Y61.786 E1.4347
G1 X130.493 Y62.464 E1.46707
G1 X131.129 Y63.201 E1.49944
G1 X131.699 Y63.991 E1.53184
G1 X132.161 Y64.767 E1.56188
G1 X132.615 Y65.709 E1.59666
G1 X132.944 Y66.587 E1.62785
G1 X133.213 Y67.559 E1.66139
G1 X133.39 Y68.526 E1.69409
G1 X133.487 Y69.69 E1.73294
G1 X133.525 Y70.994 E1.77633
G1 X133.536 Y71.121 E1.78057
G1 X133.566 Y72.23 E1.81747
G1 X133.705 Y74.726 E1.90061
G1 X133.915 Y77.232 E1.98425
G1 X134.348 Y81.217 E2.11758
G1 X134.612 Y83.887 E2.20681
G1 X134.898 Y87.308 E2.32099
G1 X135.079 Y89.929 E2.40838
G1 X135.242 Y92.826 E2.50488
G1 X135.357 Y95.49 E2.59357
G1 X135.438 Y98.188 E2.68335
G1 X135.473 Y100.042 E2.74502
G1 X135.5 Y103.511 E2.8604
G1 X135.499 Y116.82 E3.30306
G1 X135.485 Y119.174 E3.38136
G1 X135.434 Y122.024 E3.47617
G1 X135.359 Y124.461 E3.55726
G1 X135.234 Y127.31 E3.65211
G1 X135.047 Y130.578 E3.76098
G1 X134.9 Y132.668 E3.83067
G1 X134.687 Y135.256 E3.91703
G1 X134.4 Y138.289 E4.01836
G1 X134.095 Y141.076 E4.11161
G1 X133.828 Y143.662 E4.19808
G1 X133.64 Y146.194 E4.28253
G1 X133.523 Y148.735 E4.36713
G1 X133.485 Y150.286 E4.41873
G1 X133.416 Y151.257 E4.45111
G1 X133.261 Y152.22 E4.48355
G1 X133.022 Y153.164 E4.51594
G1 X132.7 Y154.083 E4.54833
G1 X132.298 Y154.969 E4.58069
G1 X131.819 Y155.818 E4.61311
G1 X131.267 Y156.62 E4.64549
G1 X130.646 Y157.369 E4.67785
G1 X129.961 Y158.064 E4.71031
G1 X129.219 Y158.692 E4.74264
G1 X128.423 Y159.253 E4.77503
G1 X127.58 Y159.742 E4.80744
G1 X126.699 Y160.154 E4.83979
G1 X125.851 Y160.465 E4.86983
G1 X124.842 Y160.736 E4.90458
G1 X123.877 Y160.903 E4.93716
G1 X122.794 Y160.987 E4.97328
G1 X122.17 Y161 E4.99404
G1 X98.064 Y160.999 E5.79581
G1 X97.331 Y160.988 E5.82019
G1 X96.359 Y160.931 E5.85258
G1 X95.396 Y160.785 E5.88497
G1 X94.45 Y160.556 E5.91735
G1 X93.526 Y160.244 E5.94978
G1 X92.636 Y159.852 E5.98213
G1 X91.813 Y159.401 E6.01334
G1 X90.974 Y158.84 E6.04691
G1 X90.27 Y158.274 E6.07696
G1 X89.517 Y157.549 E6.11172
G1 X88.88 Y156.813 E6.1441
G1 X88.35 Y156.082 E6.17413
G1 X87.814 Y155.185 E6.20888
G1 X87.392 Y154.307 E6.24128
G1 X87.05 Y153.395 E6.27368
G1 X86.79 Y152.457 E6.30605
G1 X86.612 Y151.49 E6.33876
G1 X86.513 Y150.311 E6.37811
G1 X86.475 Y149.003 E6.42163
G1 X86.464 Y148.879 E6.42577
G1 X86.434 Y147.77 E6.46267
G1 X86.295 Y145.273 E6.54585
G1 X86.084 Y142.752 E6.62999
G1 X85.65 Y138.762 E6.76348
G1 X85.366 Y135.873 E6.86003
G1 X85.102 Y132.691 E6.96623
G1 X84.914 Y129.958 E7.05735
G1 X84.797 Y127.959 E7.12395
G1 X84.676 Y125.372 E7.21009
G1 X84.579 Y122.502 E7.3056
G1 X84.523 Y119.781 E7.39612
G1 X84.501 Y116.939 E7.49064
G1 X84.502 Y102.734 E7.9631
G1 X84.529 Y99.897 E8.05747
G1 X84.582 Y97.352 E8.14213
G1 X84.651 Y95.237 E8.21252
G1 X84.814 Y91.778 E8.32769
G1 X84.938 Y89.633 E8.39915
G1 X85.168 Y86.449 E8.50533
G1 X85.407 Y83.692 E8.59737
G1 X85.695 Y80.807 E8.6938
G1 X85.909 Y78.879 E8.75832
G1 X86.175 Y76.302 E8.84449
G1 X86.362 Y73.782 E8.92854
G1 X86.478 Y71.239 E9.0132
G1 X86.514 Y69.723 E9.06364
G1 X86.582 Y68.75 E9.09608
G1 X86.736 Y67.788 E9.12849
G1 X86.975 Y66.845 E9.16084
G1 X87.296 Y65.926 E9.19322
G1 X87.697 Y65.038 E9.22563
G1 X88.176 Y64.19 E9.25802
G1 X88.727 Y63.387 E9.29041
M204 S2000
G0 F7500 X89.036 Y63.641
M204 S500
G1 F1500 X89.608 Y62.943 E9.32042
G1 X90.29 Y62.248 E9.35281
G1 X91.005 Y61.64 E9.38403
G1 X91.771 Y61.097 E9.41526
G1 X92.581 Y60.624 E9.44645
G1 X93.398 Y60.239 E9.47649
G1 X94.312 Y59.903 E9.50888
G1 X95.218 Y59.66 E9.54008
G1 X96.146 Y59.497 E9.57142
G1 X97.214 Y59.413 E9.60705
G1 X97.821 Y59.4 E9.62724
G1 X121.798 Y59.4 E10.42472
G1 X122.66 Y59.412 E10.4534
G1 X123.597 Y59.468 E10.48462
G1 X124.525 Y59.607 E10.51583
G1 X125.438 Y59.828 E10.54707
G1 X126.294 Y60.116 E10.57711
G1 X127.186 Y60.506 E10.60949
G1 X128.007 Y60.959 E10.64068
G1 X128.758 Y61.461 E10.67072
G1 X129.517 Y62.073 E10.70315
G1 X130.191 Y62.726 E10.73436
G1 X130.805 Y63.435 E10.76556
G1 X131.355 Y64.196 E10.79679
G1 X131.817 Y64.972 E10.82682
G1 X132.24 Y65.849 E10.85921
G1 X132.569 Y66.727 E10.89039
G1 X132.82 Y67.632 E10.92163
G1 X132.991 Y68.559 E10.95298
G1 X133.087 Y69.702 E10.99113
G1 X133.125 Y71.006 E11.03452
G1 X133.136 Y71.132 E11.03873
G1 X133.166 Y72.241 E11.07563
G1 X133.306 Y74.759 E11.15951
G1 X133.517 Y77.275 E11.24348
G1 X133.95 Y81.256 E11.37667
G1 X134.213 Y83.92 E11.46571
G1 X134.499 Y87.336 E11.57972
G1 X134.68 Y89.951 E11.66691
G1 X134.842 Y92.843 E11.76324
G1 X134.957 Y95.502 E11.85177
G1 X135.038 Y98.196 E11.94141
G1 X135.073 Y100.045 E12.00292
G1 X135.1 Y103.511 E12.1182
G1 X135.099 Y116.818 E12.56079
G1 X135.085 Y119.167 E12.63892
G1 X135.034 Y122.012 E12.73356
G1 X134.959 Y124.444 E12.81449
G1 X134.835 Y127.287 E12.90914
G1 X134.648 Y130.55 E13.01785
G1 X134.501 Y132.635 E13.08736
G1 X134.289 Y135.218 E13.17356
G1 X134.002 Y138.245 E13.27469
G1 X133.697 Y141.032 E13.36794
G1 X133.43 Y143.621 E13.45451
G1 X133.241 Y146.164 E13.53933
G1 X133.123 Y148.717 E13.62433
G1 X133.086 Y150.258 E13.6756
G1 X133.021 Y151.194 E13.7068
G1 X132.873 Y152.122 E13.73806
G1 X132.644 Y153.032 E13.76927
G1 X132.335 Y153.918 E13.80048
G1 X131.949 Y154.773 E13.83168
G1 X131.489 Y155.592 E13.86292
G1 X130.959 Y156.365 E13.8941
G1 X130.361 Y157.089 E13.92533
G1 X129.702 Y157.759 E13.95659
G1 X128.988 Y158.365 E13.98773
G1 X128.222 Y158.907 E14.01894
G1 X127.41 Y159.38 E14.0502
G1 X126.561 Y159.778 E14.08139
G1 X125.713 Y160.089 E14.11143
G1 X124.773 Y160.342 E14.1438
G1 X123.846 Y160.504 E14.1751
G1 X122.786 Y160.587 E14.21047
G1 X122.17 Y160.6 E14.23096
G1 X98.07 Y160.599 E15.03253
G1 X97.354 Y160.589 E15.05635
G1 X96.418 Y160.535 E15.08753
G1 X95.489 Y160.396 E15.11877
G1 X94.577 Y160.177 E15.14997
G1 X93.687 Y159.878 E15.18119
G1 X92.828 Y159.501 E15.2124
G1 X92.005 Y159.05 E15.24361
G1 X91.225 Y158.528 E15.27483
G1 X90.521 Y157.962 E15.30487
G1 X89.819 Y157.287 E15.33726
G1 X89.204 Y156.578 E15.36848
G1 X88.674 Y155.847 E15.39851
G1 X88.174 Y155.011 E15.43091
G1 X87.766 Y154.166 E15.46212
G1 X87.435 Y153.288 E15.49333
G1 X87.183 Y152.384 E15.52454
G1 X87.011 Y151.456 E15.55593
G1 X86.913 Y150.299 E15.59455
G1 X86.875 Y148.991 E15.63807
G1 X86.864 Y148.868 E15.64218
G1 X86.834 Y147.759 E15.67908
G1 X86.694 Y145.24 E15.76299
G1 X86.483 Y142.719 E15.84713
G1 X86.048 Y138.723 E15.98083
G1 X85.765 Y135.84 E16.07718
G1 X85.501 Y132.664 E16.18317
G1 X85.313 Y129.935 E16.27416
G1 X85.197 Y127.94 E16.34062
G1 X85.076 Y125.358 E16.42659
G1 X84.979 Y122.494 E16.52191
G1 X84.923 Y119.778 E16.61226
G1 X84.901 Y116.939 E16.70669
G1 X84.902 Y102.738 E17.17901
G1 X84.929 Y99.905 E17.27325
G1 X84.982 Y97.365 E17.35774
G1 X85.051 Y95.256 E17.42793
G1 X85.213 Y91.801 E17.54297
G1 X85.337 Y89.662 E17.61423
G1 X85.567 Y86.483 E17.72024
G1 X85.805 Y83.732 E17.81208
G1 X86.093 Y80.851 E17.90838
G1 X86.307 Y78.923 E17.9729
G1 X86.573 Y76.343 E18.05917
G1 X86.761 Y73.812 E18.14358
G1 X86.878 Y71.257 E18.22865
G1 X86.913 Y69.75 E18.27878
G1 X86.977 Y68.813 E18.31002
G1 X87.124 Y67.886 E18.34124
G1 X87.353 Y66.976 E18.37245
G1 X87.661 Y66.09 E18.40365
G1 X88.046 Y65.234 E18.43487
G1 X88.506 Y64.416 E18.46608
G1 X89.036 Y63.641 E18.49731
M204 S2000
G0 F7500 X89.345 Y63.895
M204 S500
G1 F1500 X89.917 Y63.197 E18.52732
G1 X90.55 Y62.552 E18.55738
G1 X91.237 Y61.966 E18.58741
G1 X91.973 Y61.442 E18.61746
G1 X92.752 Y60.986 E18.64749
G1 X93.569 Y60.601 E18.67753
G1 X94.416 Y60.289 E18.70755
G1 X95.288 Y60.054 E18.73758
G1 X96.178 Y59.896 E18.76765
G1 X97.223 Y59.813 E18.80252
G1 X97.83 Y59.8 E18.82271
G1 X121.793 Y59.8 E19.61972
G1 X122.637 Y59.811 E19.6478
G1 X123.539 Y59.864 E19.67785
G1 X124.432 Y59.996 E19.70787
G1 X125.31 Y60.207 E19.73791
G1 X126.166 Y60.495 E19.76794
G1 X126.993 Y60.857 E19.79797
G1 X127.785 Y61.292 E19.82802
G1 X128.536 Y61.794 E19.85807
G1 X129.239 Y62.361 E19.88811
G1 X129.889 Y62.988 E19.91815
G1 X130.481 Y63.67 E19.94818
G1 X131.011 Y64.401 E19.97821
G1 X131.473 Y65.177 E20.00825
G1 X131.866 Y65.99 E20.03829
G1 X132.184 Y66.835 E20.06832
G1 X132.427 Y67.705 E20.09836
G1 X132.592 Y68.593 E20.1284
G1 X132.687 Y69.714 E20.16582
G1 X132.725 Y71.021 E20.20931
G1 X132.736 Y71.143 E20.21338
G1 X132.766 Y72.252 E20.25028
G1 X132.907 Y74.792 E20.33489
G1 X133.119 Y77.318 E20.4192
G1 X133.552 Y81.295 E20.55226
G1 X133.814 Y83.953 E20.64109
G1 X134.1 Y87.364 E20.75494
G1 X134.281 Y89.973 E20.84193
G1 X134.442 Y92.86 E20.9381
G1 X134.557 Y95.514 E21.02645
G1 X134.638 Y98.204 E21.11596
G1 X134.673 Y100.048 E21.17731
G1 X134.7 Y103.511 E21.29249
G1 X134.699 Y116.816 E21.73501
G1 X134.685 Y119.16 E21.81298
G1 X134.634 Y122 E21.90745
G1 X134.559 Y124.427 E21.98821
G1 X134.436 Y127.264 E22.08266
G1 X134.249 Y130.522 E22.1912
G1 X134.102 Y132.602 E22.26055
G1 X133.891 Y135.18 E22.34659
G1 X133.604 Y138.201 E22.44752
G1 X133.299 Y140.988 E22.54077
G1 X133.032 Y143.58 E22.62743
G1 X132.842 Y146.134 E22.71261
G1 X132.723 Y148.698 E22.79798
G1 X132.687 Y150.231 E22.84899
G1 X132.626 Y151.132 E22.87902
G1 X132.485 Y152.025 E22.90909
G1 X132.266 Y152.901 E22.93912
G1 X131.97 Y153.754 E22.96915
G1 X131.6 Y154.578 E22.9992
G1 X131.159 Y155.366 E23.02923
G1 X130.65 Y156.111 E23.05924
G1 X130.076 Y156.809 E23.0893
G1 X129.443 Y157.454 E23.11936
G1 X128.756 Y158.039 E23.14937
G1 X128.02 Y158.562 E23.1794
G1 X127.24 Y159.018 E23.20945
G1 X126.423 Y159.402 E23.23947
G1 X125.575 Y159.713 E23.26952
G1 X124.703 Y159.948 E23.29955
G1 X123.814 Y160.105 E23.32958
G1 X122.777 Y160.187 E23.36418
G1 X122.17 Y160.2 E23.38437
G1 X98.075 Y160.199 E24.18577
G1 X97.377 Y160.19 E24.20899
G1 X96.476 Y160.139 E24.23901
G1 X95.582 Y160.007 E24.26906
G1 X94.704 Y159.798 E24.29908
G1 X93.847 Y159.511 E24.32914
G1 X93.02 Y159.15 E24.35916
G1 X92.227 Y158.717 E24.38921
G1 X91.476 Y158.216 E24.41923
G1 X90.772 Y157.65 E24.44928
G1 X90.121 Y157.024 E24.47932
G1 X89.528 Y156.343 E24.50935
G1 X88.998 Y155.612 E24.53938
G1 X88.534 Y154.837 E24.56942
G1 X88.14 Y154.024 E24.59947
G1 X87.82 Y153.18 E24.62949
G1 X87.576 Y152.31 E24.65955
G1 X87.41 Y151.422 E24.68959
G1 X87.313 Y150.287 E24.72748
G1 X87.275 Y148.979 E24.771
G1 X87.264 Y148.857 E24.77508
G1 X87.234 Y147.748 E24.81198
G1 X87.093 Y145.207 E24.89662
G1 X86.882 Y142.686 E24.98076
G1 X86.446 Y138.684 E25.11466
G1 X86.164 Y135.807 E25.21081
G1 X85.9 Y132.636 E25.31664
G1 X85.712 Y129.912 E25.40745
G1 X85.597 Y127.921 E25.47379
G1 X85.476 Y125.344 E25.55959
G1 X85.379 Y122.486 E25.6547
G1 X85.323 Y119.775 E25.74489
G1 X85.301 Y116.939 E25.83922
G1 X85.302 Y102.742 E26.31141
G1 X85.329 Y99.913 E26.40551
G1 X85.382 Y97.378 E26.48984
G1 X85.451 Y95.275 E26.55983
G1 X85.612 Y91.824 E26.67473
G1 X85.736 Y89.691 E26.7458
G1 X85.966 Y86.517 E26.85164
G1 X86.203 Y83.772 E26.94328
G1 X86.491 Y80.895 E27.03945
G1 X86.705 Y78.967 E27.10397
G1 X86.971 Y76.384 E27.19033
G1 X87.16 Y73.842 E27.27511
G1 X87.278 Y71.275 E27.36058
G1 X87.312 Y69.777 E27.41042
G1 X87.372 Y68.875 E27.44049
G1 X87.512 Y67.983 E27.47052
G1 X87.731 Y67.107 E27.50055
G1 X88.026 Y66.253 E27.5306
G1 X88.395 Y65.429 E27.56063
G1 X88.836 Y64.641 E27.59066
G1 X89.345 Y63.895 E27.6207
M204 S2000
G1 F2400 E26.8207
G0 F7500 X110 Y99.804
M204 S500
G1 F2400 E27.6207
G1 F1500 X110.91 Y106.632 E27.84981
G1 X111.023 Y107.172 E27.86816
G1 X111.188 Y107.635 E27.88451
G1 X111.448 Y108.238 E27.90635
G1 X111.842 Y108.937 E27.93304
G1 X112.067 Y109.253 E27.94594
G1 X112.599 Y109.854 E27.97263
G1 X112.76 Y110.001 E27.97988
G1 X112.575 Y110.171 E27.98824
G1 X112.196 Y110.571 E28.00657
G1 X111.907 Y110.978 E28.02317
G1 X111.571 Y111.523 E28.04447
G1 X111.317 Y112.012 E28.06279
G1 X111.147 Y112.49 E28.07967
G1 X110.991 Y113.046 E28.09887
G1 X110.883 Y113.571 E28.1167
G1 X110 Y120.193 E28.3389
G1 X109.09 Y113.368 E28.56791
G1 X108.977 Y112.828 E28.58626
G1 X108.812 Y112.365 E28.60261
G1 X108.552 Y111.762 E28.62445
G1 X108.158 Y111.063 E28.65113
G1 X107.933 Y110.747 E28.66404
G1 X107.401 Y110.146 E28.69073
G1 X107.058 Y109.833 E28.70618
G1 X107.174 Y109.719 E28.71159
G1 X107.451 Y109.417 E28.72522
G1 X107.698 Y109.117 E28.73814
G1 X107.92 Y108.819 E28.7505
G1 X108.134 Y108.5 E28.76328
G1 X108.329 Y108.174 E28.77591
G1 X108.507 Y107.841 E28.78847
G1 X108.674 Y107.487 E28.80149
G1 X108.819 Y107.132 E28.81424
G1 X108.942 Y106.782 E28.82658
G1 X109.051 Y106.417 E28.83925
G1 X109.146 Y106.025 E28.85267
G1 X109.213 Y105.665 E28.86485
G1 X109.244 Y105.472 E28.87135
G1 X110 Y99.804 E29.06154
M204 S2000
G1 F2400 E28.26154
G0 F7500 X110 Y96.773
M204 S500
G1 F2400 E29.06154
G1 F1500 X111.307 Y106.579 E29.39057
G1 X111.415 Y107.089 E29.40791
G1 X111.555 Y107.476 E29.4216
G1 X111.815 Y108.079 E29.44344
G1 X112.167 Y108.705 E29.46732
G1 X112.392 Y109.021 E29.48023
G1 X112.869 Y109.559 E29.50414
G1 X113.321 Y109.972 E29.5245
G1 X113.361 Y110.003 E29.52619
G1 X113.3 Y110.048 E29.52871
G1 X112.845 Y110.465 E29.54924
G1 X112.489 Y110.846 E29.56658
G1 X112.248 Y111.188 E29.58049
G1 X111.912 Y111.733 E29.60179
G1 X111.673 Y112.196 E29.61912
G1 X111.532 Y112.599 E29.63332
G1 X111.376 Y113.155 E29.65253
G1 X111.28 Y113.624 E29.66845
G1 X110 Y123.223 E29.99054
G1 X108.693 Y113.421 E30.31944
G1 X108.585 Y112.911 E30.33678
G1 X108.445 Y112.524 E30.35047
G1 X108.185 Y111.921 E30.37231
G1 X107.833 Y111.295 E30.39619
G1 X107.608 Y110.979 E30.4091
G1 X107.131 Y110.441 E30.43301
G1 X106.679 Y110.028 E30.45338
G1 X106.452 Y109.85 E30.46297
G1 X106.62 Y109.701 E30.47044
G1 X106.894 Y109.433 E30.48319
G1 X107.142 Y109.163 E30.49538
G1 X107.389 Y108.863 E30.5083
G1 X107.588 Y108.596 E30.51938
G1 X107.802 Y108.277 E30.53216
G1 X107.977 Y107.986 E30.54345
G1 X108.155 Y107.653 E30.55601
G1 X108.304 Y107.336 E30.56766
G1 X108.449 Y106.981 E30.58041
G1 X108.559 Y106.668 E30.59145
G1 X108.668 Y106.303 E30.60412
G1 X108.753 Y105.952 E30.61613
G1 X108.82 Y105.592 E30.62831
G1 X108.847 Y105.419 E30.63413
G1 X110 Y96.773 E30.92425
M204 S2000
G1 F2400 E30.12425
G0 F7500 X110 Y93.751
M204 S500
G1 F2400 E30.92425
G1 F1500 X111.703 Y106.526 E31.3529
G1 X111.807 Y107.005 E31.36921
